!!!!SEGMENT: pl-cz--iii-689--003_volckmer-augustin--stabat-mater-widzialla-kochanka-swego.krn
!!!cenid: 17xx:1222
!!!COM: Volckmer, Augustin
!!!COM-rismid: pe30020656
!!!CDT: 1755-~1820
!!!CNT:
!!!OPR: Stabat Mater
!!!OTL: Widziała Kochanka swego
!!!OMV: 003
!!!PDT:
!!!AGN: Sacred
!!!SMS-siglum: PL-CZ
!!!SMS-shelfmark: III-689
!!!SMS-shelfwork: 001-003 M
!!!SMS-variant:
!!!SMS-altvar:
!!!NIFC-rismid: 300001407
!!!URL-scan: http://repozytorium.nifc.pl/skany/pl-cz-nut--iii-689
!!!ONB-nifc: UWAGA: części Stabat Mater: Stała Matka Boleściwa, O jak smutna i strapiona, Widziała Kochanka swego, Święta matko, Pragnę stać pod krzyżem, Niech gorzką śmierć, Daj niech rany, Ze wszech Panien, Kiedy ciało
!!!key: F
**kern	**dynam	**kern	**dynam	**kern	**dynam	**kern	**dynam	**kern	**kern	**text	**kern	**kern	**kern	**dynam	**kern	**dynam	**kern	**dynam	**kern	**dynam	**kern	**dynam	**kern	**kern
*	*	*group4	*	*group4	*	*group4	*	*group3	*group3	*	*group3	*group3	*group2	*	*group2	*	*group1	*	*group1	*	*group1	*	*group1	*group1
*part15	*part15	*part14	*part14	*part13	*part13	*part12	*part12	*part11	*part10	*part10	*part9	*part8	*part7	*part7	*part6	*part6	*part5	*part5	*part4	*part4	*part3	*part3	*part2	*part1
*staff15	*	*staff14	*	*staff13	*	*staff12	*	*staff11	*staff10	*staff10	*staff9	*staff8	*staff7	*	*staff6	*	*staff5	*	*staff4	*	*staff3	*	*staff2	*staff1
*I"Fundamento	*	*I"Alto Viola Oblg: per expreſsivo.	*	*I"Violino Secundo.	*	*I"Violino Primo.	*	*I"Baſso.	*I"Tenore	*	*I"Alto.	*I"Canto.	*I"Cors de Caſse Secondo in Dis.	*	*I"Cors de Caſse Primo in Dis.	*	*I"Fagotto	*	*I"Haubois Secunda.	*	*I"Haubois Primo	*	*I"Flauto Secondo.	*I"Flauto Primo.
*I'bc	*	*I'vla	*	*I'vl 2	*	*I'vl 1	*	*I'B	*I'T	*	*I'A	*I'S	*I'cor da caccia 2 in E|b	*	*I'cor da caccia 1 in E|b	*	*I'fag	*	*I'ob 2	*	*I'ob 1	*	*I'fl 2	*I'fl 1
*Iorgan	*	*Iviola	*	*Ivioln	*	*Ivioln	*	*Ibasso	*Itenor	*	*Ialto	*Isoprn	*Icor	*	*Icor	*	*Ifagot	*	*Ioboe	*	*Ioboe	*	*Iflt	*Iflt
*ICklav	*	*ICstr	*	*ICstr	*	*ICstr	*	*ICvox	*ICvox	*	*ICvox	*ICvox	*ICbras	*	*ICbras	*	*ICww	*	*ICww	*	*ICww	*	*ICww	*ICww
*	*	*	*	*	*	*	*	*IGcoro	*IGcoro	*	*IGcoro	*IGcoro	*	*	*	*	*	*	*	*	*	*	*	*
*	*	*	*	*	*	*	*	*tacet	*	*	*tacet	*tacet	*	*	*	*	*	*	*	*	*	*	*tacet	*tacet
*clefF4	*	*clefC3	*	*clefG2	*	*clefG2	*	*	*clefC4	*	*	*	*clefG2	*	*clefG2	*	*clefF4	*	*clefG2	*	*clefG2	*	*	*
*	*	*	*	*	*	*	*	*	*	*	*	*	*ITrd4c7	*	*ITrd4c7	*	*	*	*	*	*	*	*	*
*k[b-]	*	*k[b-]	*	*k[b-]	*	*k[b-]	*	*	*k[b-]	*	*	*	*k[b-]	*	*k[b-]	*	*k[b-]	*	*k[b-]	*	*k[b-]	*	*	*
*F:	*	*F:	*	*F:	*	*F:	*	*	*F:	*	*	*	*F:	*	*F:	*	*F:	*	*F:	*	*F:	*	*	*
*M3/4	*	*M3/4	*	*M3/4	*	*M3/4	*	*	*M3/4	*	*	*	*M3/4	*	*M3/4	*	*M3/4	*	*M3/4	*	*M3/4	*	*	*
*	*	*2\right	*	*	*	*	*	*	*	*	*	*	*all\right	*	*all\right	*	*	*	*	*	*	*	*	*
=1	=1	=1	=1	=1	=1	=1	=1	=1	=1	=1	=1	=1	=1	=1	=1	=1	=1	=1	=1	=1	=1	=1	=1	=1
!LO:TX:a:i:t=Aria 2da	!	!LO:TX:a:i:t=Aria IIda Tenore Solo.	!	!LO:TX:a:i:t=Aria 2do	!	!LO:TX:a:i:t=Aria 2da	!	!	!LO:TX:b:t=22	!	!	!	!LO:TX:a:t=2da Aria in F	!	!LO:TX:a:t=2d Aria	!	!LO:TX:a:i:t=Aria IIda	!	!LO:TX:a:t=6.	!	!LO:TX:a:t=6	!	!	!
!LO:TX:a:Bi:t=Andante	!	!LO:TX:a:Bi:t=Andante	!	!LO:TX:a:Bi:t=Andante	!	!LO:TX:a:Bi:t=Andante	!LO:DY:a:t=f&colon;	!LO:TX:a:t=Aria IIda Tenor Solo Tacet	!LO:TX:a:B:t=Andante	!	!LO:TX:a:t=Aria IIda Tenor Solo Tacet	!LO:TX:a:t=Aria IIda Tenore Solo\nTacet	!LO:TX:a:Bi:t=Andante	!	!LO:TX:a:Bi:t=Andante in F	!LO:DY:t=for	!LO:TX:a:Bi:t=Andante.	!LO:DY:t=f&colon;	!LO:TX:a:Bi:t=andante	!	!LO:TX:a:Bi:t=Andante	!	!LO:TX:a:t=Aria II Tacet	!LO:TX:a:t=Aria IIda Tacet
4F\	.	2c\	.	16a/LL	f	(16cc\LL	f	2.ryy	0.r	.	2.ryy	2.ryy	4f\	.	4a\	f	4F\	f	0.r	.	0.r	.	2.ryy	2.ryy
.	.	.	.	16g/	.	16b-\	.	.	.	.	.	.	.	.	.	.	.	.	.	.	.	.	.	.
.	.	.	.	16f/	.	16a\	.	.	.	.	.	.	.	.	.	.	.	.	.	.	.	.	.	.
.	.	.	.	16g/JJ	.	16b-\JJ)	.	.	.	.	.	.	.	.	.	.	.	.	.	.	.	.	.	.
4r	.	.	.	4a/	.	4cc\	.	.	.	.	.	.	4r	.	4r	.	4r	.	.	.	.	.	.	.
4AA/	.	4c\	.	4A/	.	4f/	.	.	.	.	.	.	4A/	.	4f\	.	4AA/	.	.	.	.	.	.	.
=2	=2	=2	=2	=2	=2	=2	=2	=2	=2	=2	=2	=2	=2	=2	=2	=2	=2	=2	=2	=2	=2	=2	=2	=2
*	*	*	*	*	*	*	*	*	*	*	*	*	*	*	*2\right	*	*	*	*	*	*	*	*	*
2C/	.	2c\	.	4.e/	.	4.g/	.	2.ryy	.	.	2.ryy	2.ryy	2c/	.	2g\	.	4C/	.	.	.	.	.	2.ryy	2.ryy
.	.	.	.	.	.	.	.	.	.	.	.	.	.	.	.	.	4CC/	.	.	.	.	.	.	.
.	.	.	.	(16f/LL	.	(16a/LL	.	.	.	.	.	.	.	.	.	.	.	.	.	.	.	.	.	.
.	.	.	.	16g/JJ)	.	16b-/JJ)	.	.	.	.	.	.	.	.	.	.	.	.	.	.	.	.	.	.
4F\	.	4c\	.	4f/	.	4a/	.	.	.	.	.	.	4f\	.	4a\	.	4FF/	.	.	.	.	.	.	.
=3	=3	=3	=3	=3	=3	=3	=3	=3	=3	=3	=3	=3	=3	=3	=3	=3	=3	=3	=3	=3	=3	=3	=3	=3
4BB-/	.	4d\	.	8B-/L	.	8g'/L	.	2.ryy	.	.	2.ryy	2.ryy	4r	.	4r	.	8BB-/L	.	.	.	.	.	2.ryy	2.ryy
.	.	.	.	8d/	.	8b-'/J	.	.	.	.	.	.	.	.	.	.	8GG/J	.	.	.	.	.	.	.
4C/	.	4c\	.	8c/	.	(16b-/LL	.	.	.	.	.	.	4r	.	4r	.	4C/	.	.	.	.	.	.	.
.	.	.	.	.	.	16a/)	.	.	.	.	.	.	.	.	.	.	.	.	.	.	.	.	.	.
.	.	.	.	8B-/	.	(16a/)	.	.	.	.	.	.	.	.	.	.	.	.	.	.	.	.	.	.
.	.	.	.	.	.	16g/JJ)	.	.	.	.	.	.	.	.	.	.	.	.	.	.	.	.	.	.
4CC/	.	4c\	.	8A/	.	(16g/LL	.	.	.	.	.	.	8f\L	.	8a\L	.	4CC/	.	.	.	.	.	.	.
.	.	.	.	.	.	16f/)	.	.	.	.	.	.	.	.	.	.	.	.	.	.	.	.	.	.
.	.	.	.	8G/J	.	16f'/	.	.	.	.	.	.	8c\J	.	8g\J	.	.	.	.	.	.	.	.	.
.	.	.	.	.	.	16e'/JJ	.	.	.	.	.	.	.	.	.	.	.	.	.	.	.	.	.	.
=4	=4	=4	=4	=4	=4	=4	=4	=4	=4	=4	=4	=4	=4	=4	=4	=4	=4	=4	=4	=4	=4	=4	=4	=4
.	.	.	.	.	.	16qqe/	.	.	.	.	.	.	.	.	.	.	.	.	.	.	.	.	.	.
!	!	!	!	!	!	!	!	!	!	!	!	!	!	!	!	!	!LO:TX:t=P:problem:mixed beam	!	!	!	!	!	!	!
8F\L|	.	2c\	.	2A/	.	2f/	.	2.ryy	.	.	2.ryy	2.ryy	2F/	.	2c/	.	8FF/L	.	.	.	.	.	2.ryy	2.ryy
(8D\	.	.	.	.	.	.	.	.	.	.	.	.	.	.	.	.	(8D\	.	.	.	.	.	.	.
8C\	.	.	.	.	.	.	.	.	.	.	.	.	.	.	.	.	8C\	.	.	.	.	.	.	.
8BB-\	.	.	.	.	.	.	.	.	.	.	.	.	.	.	.	.	8BB-\	.	.	.	.	.	.	.
8AA\	.	4r	.	4r	.	4r	.	.	.	.	.	.	4r	.	4r	.	8AA\	.	.	.	.	.	.	.
8GG\J)	.	.	.	.	.	.	.	.	.	.	.	.	.	.	.	.	8GG\J)	.	.	.	.	.	.	.
=5	=5	=5	=5	=5	=5	=5	=5	=5	=5	=5	=5	=5	=5	=5	=5	=5	=5	=5	=5	=5	=5	=5	=5	=5
!	!	!	!	!	!	!	!LO:DY:a	!	!	!	!	!	!	!	!	!	!	!	!	!	!	!	!	!
4FF/	.	2c\	.	(16a/LL	p	(16cc\LL	p	2.ryy	0.r	.	2.ryy	2.ryy	4f\	p	4a\	p	(16c\LL	.	1.r	.	1.r	.	2.ryy	2.ryy
.	.	.	.	16g/	.	16b-\	.	.	.	.	.	.	.	.	.	.	16B-\	.	.	.	.	.	.	.
.	.	.	.	16f/	.	16a\	.	.	.	.	.	.	.	.	.	.	16A\	.	.	.	.	.	.	.
.	.	.	.	16g/JJ)	.	16b-\JJ)	.	.	.	.	.	.	.	.	.	.	16B-\JJ)	.	.	.	.	.	.	.
4r	.	.	.	4a/	.	4cc\	.	.	.	.	.	.	4r	.	4r	.	4c\	.	.	.	.	.	.	.
4AA/	.	4c\	.	4a/	.	4f/	.	.	.	.	.	.	4A/	.	4f\	.	4F\	.	.	.	.	.	.	.
=6	=6	=6	=6	=6	=6	=6	=6	=6	=6	=6	=6	=6	=6	=6	=6	=6	=6	=6	=6	=6	=6	=6	=6	=6
2C/	.	2c\	.	4.e/	.	4.g/	.	2.ryy	.	.	2.ryy	2.ryy	2c/	.	2g\	.	(4.G\	.	.	.	.	.	2.ryy	2.ryy
.	.	.	.	16e/LL	.	(16a/LL	.	.	.	.	.	.	.	.	.	.	16A\LL	.	.	.	.	.	.	.
.	.	.	.	16f/JJ	.	16b-/JJ)	.	.	.	.	.	.	.	.	.	.	16B-\JJ)	.	.	.	.	.	.	.
4F\	.	4c\	.	4f/	.	4a/	.	.	.	.	.	.	4f\	.	4a\	.	4A\	.	.	.	.	.	.	.
=7	=7	=7	=7	=7	=7	=7	=7	=7	=7	=7	=7	=7	=7	=7	=7	=7	=7	=7	=7	=7	=7	=7	=7	=7
*2\right	*	*	*	*	*	*	*	*	*	*	*	*	*	*	*	*	*	*	*	*	*	*	*	*
*tremolo	*	*tremolo	*	*tremolo	*	*	*	*	*	*	*	*	*	*	*	*	*	*	*	*	*2\right	*	*	*
!	!	!	!	!	!	!	!	!	!	!	!	!	!LO:TX:a:t=1	!	!LO:TX:a:t=1	!	!	!	!	!	!	!	!	!
8B-\L	.	8d\L	.	8f/L	.	4dd\	.	2.ryy	.	.	2.ryy	2.ryy	2.r	.	2.r	.	4d\	.	2.b-/	.	2.dd\	.	2.ryy	2.ryy
8B-\	.	8d\	.	8f/	.	.	.	.	.	.	.	.	.	.	.	.	.	.	.	.	.	.	.	.
8B-\	.	8d\	.	8f/	.	(16dd\LL	.	.	.	.	.	.	.	.	.	.	(16d\LL	.	.	.	.	.	.	.
.	.	.	.	.	.	16ff\	.	.	.	.	.	.	.	.	.	.	16f\	.	.	.	.	.	.	.
8B-\	.	8d\	.	8f/	.	16ee\	.	.	.	.	.	.	.	.	.	.	16e\	.	.	.	.	.	.	.
.	.	.	.	.	.	16ff\JJ)	.	.	.	.	.	.	.	.	.	.	16f\JJ)	.	.	.	.	.	.	.
!	!	!	!	!	!	!LO:LB:g=original	!	!	!	!	!	!	!	!	!	!	!	!	!	!	!	!	!	!
8B-\	.	8d\	.	8f/	.	(16gg\LL	.	.	.	.	.	.	.	.	.	.	(16g\LL	.	.	.	.	.	.	.
.	.	.	.	.	.	16ff\	.	.	.	.	.	.	.	.	.	.	16f\	.	.	.	.	.	.	.
8B-\J	.	8d\J	.	8f/J	.	16ee\	.	.	.	.	.	.	.	.	.	.	16e\	.	.	.	.	.	.	.
.	.	.	.	.	.	16ff\JJ)	.	.	.	.	.	.	.	.	.	.	16f\JJ)	.	.	.	.	.	.	.
=8	=8	=8	=8	=8	=8	=8	=8	=8	=8	=8	=8	=8	=8	=8	=8	=8	=8	=8	=8	=8	=8	=8	=8	=8
!	!	!	!	!	!	!LO:TX:t=P:problem:przekreślone szesnastki	!	!	!	!	!	!	!	!	!	!	!	!	!	!	!	!	!	!
8A\L	.	8c\L	.	8f/L	.	4cc\	.	2.ryy	.	.	2.ryy	2.ryy	4r	.	4r	.	4c\	.	2.a/	.	2.cc\	.	2.ryy	2.ryy
8A\	.	8c\	.	8f/	.	.	.	.	.	.	.	.	.	.	.	.	.	.	.	.	.	.	.	.
8A\	.	8c\	.	8f/	.	(16cc\LL	.	.	.	.	.	.	4r	.	4r	.	(16c\LL	.	.	.	.	.	.	.
.	.	.	.	.	.	16ff\	.	.	.	.	.	.	.	.	.	.	16f\	.	.	.	.	.	.	.
8A\	.	8c\	.	8f/	.	16ee\	.	.	.	.	.	.	.	.	.	.	16e\	.	.	.	.	.	.	.
.	.	.	.	.	.	16ff\JJ)	.	.	.	.	.	.	.	.	.	.	16f\JJ)	.	.	.	.	.	.	.
8A\	.	8c\	.	8f/	.	(16gg\LL	.	.	.	.	.	.	4f\	.	4a\	.	(16g\LL	.	.	.	.	.	.	.
.	.	.	.	.	.	16ff\	.	.	.	.	.	.	.	.	.	.	16f\	.	.	.	.	.	.	.
8A\J	.	8c\J	.	8f/J	.	16ee\	.	.	.	.	.	.	.	.	.	.	16e\	.	.	.	.	.	.	.
.	.	.	.	.	.	16dd\JJ)	.	.	.	.	.	.	.	.	.	.	16f\JJ)	.	.	.	.	.	.	.
*Xtremolo	*	*	*	*Xtremolo	*	*	*	*	*	*	*	*	*	*	*	*	*	*	*	*	*	*	*	*
!LO:LB:g=original	!	!	!	!	!	!	!	!	!	!	!	!	!	!	!	!	!LO:LB:g=original	!	!	!	!	!	!	!
=9	=9	=9	=9	=9	=9	=9	=9	=9	=9	=9	=9	=9	=9	=9	=9	=9	=9	=9	=9	=9	=9	=9	=9	=9
!	!	!	!	!LO:TX:t=P:problem:mixed beam	!	!	!	!	!	!	!	!	!	!	!	!	!	!	!	!	!	!	!	!
8G\L	.	8cc\L	.	8g/L	.	(16ff\LL	.	2.ryy	0.r	.	2.ryy	2.ryy	2.c/	.	2.g\	.	(16f\LL	.	2g/	.	2b-\	.	2.ryy	2.ryy
.	.	.	.	.	.	16ee\	.	.	.	.	.	.	.	.	.	.	16e\	.	.	.	.	.	.	.
8G\	.	8cc\	.	(16gg\L	.	16gg\	.	.	.	.	.	.	.	.	.	.	16g\	.	.	.	.	.	.	.
.	.	.	.	16ff\JJ)	.	16ff\JJ)	.	.	.	.	.	.	.	.	.	.	16f\JJ)	.	.	.	.	.	.	.
!	!	!	!	!LO:LB:g=original	!	!	!	!	!	!	!	!	!	!	!	!	!	!	!	!	!	!	!	!
8E\	.	8cc\	.	(16ee\LL	.	(16ee\LL	.	.	.	.	.	.	.	.	.	.	(16e\LL	.	.	.	.	.	.	.
.	.	.	.	16ff\	.	16ff\	.	.	.	.	.	.	.	.	.	.	16f\	.	.	.	.	.	.	.
8E\	.	8cc\	.	16ee\	.	16ee\	.	.	.	.	.	.	.	.	.	.	16e\	.	.	.	.	.	.	.
.	.	.	.	16dd\JJ)	.	16dd\JJ)	.	.	.	.	.	.	.	.	.	.	16d\JJ)	.	.	.	.	.	.	.
8C\	.	8cc\	.	(16cc\LL	.	(16cc\LL	.	.	.	.	.	.	.	.	.	.	(16c\LL	.	4e/	.	4g/	.	.	.
.	.	.	.	16b-\	.	16b-\	.	.	.	.	.	.	.	.	.	.	16B-\	.	.	.	.	.	.	.
8C\J	.	8cc\J	.	16a\	.	16a\	.	.	.	.	.	.	.	.	.	.	16A\	.	.	.	.	.	.	.
.	.	.	.	16g\JJ)	.	16g\JJ)	.	.	.	.	.	.	.	.	.	.	16G\JJ)	.	.	.	.	.	.	.
*	*	*Xtremolo	*	*	*	*	*	*	*	*	*	*	*	*	*	*	*	*	*	*	*	*	*	*
=10	=10	=10	=10	=10	=10	=10	=10	=10	=10	=10	=10	=10	=10	=10	=10	=10	=10	=10	=10	=10	=10	=10	=10	=10
!	!	!	!	!LO:TX:t=P:problem:mixed beam	!	!LO:TX:t=P:problem:mixed beam	!	!	!	!	!	!	!	!	!	!	!	!	!	!	!	!	!	!
4F\	.	4a\	.	16a/LL	.	16a/LL|	.	2.ryy	.	.	2.ryy	2.ryy	4f\	f	4a\	.	4A\	.	4f/	.	4a/	.	2.ryy	2.ryy
.	.	.	.	(16aa\	.	(16aa\	.	.	.	.	.	.	.	.	.	.	.	.	.	.	.	.	.	.
.	.	.	.	16gg\	.	16gg\	.	.	.	.	.	.	.	.	.	.	.	.	.	.	.	.	.	.
.	.	.	.	16ff\JJ)	.	16ff\JJ)	.	.	.	.	.	.	.	.	.	.	.	.	.	.	.	.	.	.
8r	.	8r	.	(16ee\LL	.	16ee\LL	.	.	.	.	.	.	8r	.	8r	.	8r	.	8r	.	8r	.	.	.
.	.	.	.	16ff\	.	16ff\	.	.	.	.	.	.	.	.	.	.	.	.	.	.	.	.	.	.
8F\L	.	8a\L	.	16cc\	.	16cc\	.	.	.	.	.	.	8f\L	.	8a\L	.	8F\L|	.	8cc'\	.	8ee-X\L|	.	.	.
.	.	.	.	16ee-X\JJ)	.	16ee-X\JJ	.	.	.	.	.	.	.	.	.	.	.	.	.	.	.	.	.	.
8G\	.	8b-\	.	(16ee-\LL	.	(16ee-\LL	.	.	.	.	.	.	8g\	.	8b-\	.	(8G\	.	(8b-\L	.	(8dd\	.	.	.
.	.	.	.	16dd\	.	16dd\	.	.	.	.	.	.	.	.	.	.	.	.	.	.	.	.	.	.
8A\J	.	8cc\J	.	16dd\	.	16dd\	.	.	.	.	.	.	8a\J	.	8cc\J	.	8A\J)	.	8a\J)	.	8cc\J)	.	.	.
.	.	.	.	16cc\JJ)	.	16cc\JJ)	.	.	.	.	.	.	.	.	.	.	.	.	.	.	.	.	.	.
=11	=11	=11	=11	=11	=11	=11	=11	=11	=11	=11	=11	=11	=11	=11	=11	=11	=11	=11	=11	=11	=11	=11	=11	=11
!LO:TX:t=P:problem:mixed beam	!	!	!	!	!	!	!	!	!	!	!	!	!	!	!	!	!	!	!	!	!	!	!	!
8B-\L	.	4dd\	.	16dd\LL	.	(16dd\LL	.	2.ryy	.	.	2.ryy	2.ryy	4g\	.	4dd\	.	4B-\	.	4b-\	.	4dd\	.	2.ryy	2.ryy
.	.	.	.	16ee-X\	.	16een\	.	.	.	.	.	.	.	.	.	.	.	.	.	.	.	.	.	.
8B-\	.	.	.	16ff\	.	16ff\	.	.	.	.	.	.	.	.	.	.	.	.	.	.	.	.	.	.
.	.	.	.	16ff\JJ	.	16ee\JJ)	.	.	.	.	.	.	.	.	.	.	.	.	.	.	.	.	.	.
8c\	.	8r	.	(16dd\LL	.	(16ff\LL	.	.	.	.	.	.	4r	.	4r	.	4c\	.	8r	.	8r	.	.	.
.	.	.	.	16b-\	.	16dd\	.	.	.	.	.	.	.	.	.	.	.	.	.	.	.	.	.	.
8c\	.	8d\L	.	16a\	.	16cc\	.	.	.	.	.	.	.	.	.	.	.	.	8g'/L	.	8b-/L|	.	.	.
.	.	.	.	16g\JJ)	.	16b-\JJ)	.	.	.	.	.	.	.	.	.	.	.	.	.	.	.	.	.	.
8C/	.	8c\	.	8f/L	.	8a/L	.	.	.	.	.	.	8f\L	.	8a\L	.	4C/	.	(8f/	.	(8a/	.	.	.
8C/J	.	8c\J	.	8e/J	.	8g/J	.	.	.	.	.	.	8c\J	.	8g\J	.	.	.	8e/J)	.	8g/J)	.	.	.
=12	=12	=12	=12	=12	=12	=12	=12	=12	=12	=12	=12	=12	=12	=12	=12	=12	=12	=12	=12	=12	=12	=12	=12	=12
*	*	*	*	*	*	*^	*	*	*	*	*	*	*	*	*	*	*	*	*	*	*	*	*	*
*	*	*	*	*	*	*cue	*	*	*	*	*	*	*	*	*	*	*	*	*	*	*	*	*	*	*
!	!	!LO:TX:a:i:t=Dolce	!	!	!	!	!	!	!	!	!	!	!	!	!	!	!	!LO:TX:b:i:t=Dolce	!	!LO:TX:a:i:t=Dol&colon;	!	!LO:TX:a:i:t=Dol&colon;	!	!	!
4F\	.	4F/	.	4c/	.	4a	4A/	p	2.ryy	.	.	2.ryy	2.ryy	4F/	.	4c/	.	4A\	.	4f/	.	4a/	p	2.ryy	2.ryy
!	!	!	!	!	!	!	!	!	!	!	!	!	!	!	!	!	!	!	!	!	!LO:DY:t=p&colon;	!	!	!	!
4r	.	4G/	p	4r	.	4b-	4B-/	.	.	.	.	.	.	4r	.	4r	.	4B-\	.	4g/	p	4b-/	.	.	.
4r	.	4A/	.	4f/	.	4cc	4c/	.	.	.	.	.	.	4r	.	4r	.	4c\	.	4a/	.	4cc/	.	.	.
!	!	!LO:LB:g=original	!	!	!	!	!	!	!	!	!	!	!	!	!	!	!	!	!	!	!	!	!	!	!
=13	=13	=13	=13	=13	=13	=13	=13	=13	=13	=13	=13	=13	=13	=13	=13	=13	=13	=13	=13	=13	=13	=13	=13	=13	=13
!	!	!	!	!	!	!	!	!	!	!	!	!	!	!LO:TX:a:t=1	!	!LO:TX:a:t=1	!	!	!LO:DY:t=p&colon;	!	!	!	!	!	!
4BB-/	.	(8.B-\L	.	4f/	.	8.dd/L	(8.d/L	.	2.ryy	0.r	.	2.ryy	2.ryy	2.r	.	2.r	.	8.d\L	p	8.b-\L	.	(8.dd\L	.	2.ryy	2.ryy
.	.	16c\K)	.	.	.	16ee/Jk	16e/Jk)	.	.	.	.	.	.	.	.	.	.	16e\Jk	.	16cc\Jk	.	16ee\K)	.	.	.
.	.	.	.	.	.	.	.	.	.	.	.	.	.	.	.	.	.	.	.	.	.	16qqgg/	.	.	.
4r	.	8d'\	.	4r	.	8ff/L	8f'/L	.	.	.	.	.	.	.	.	.	.	8f\L	.	8dd'\L	.	8ff'\	.	.	.
!	!	!	!	!	!	!	!	!	!	!	!	!	!	!	!	!	!	!LO:TX:b:i:t=Solo	!	!	!	!	!	!	!
.	.	8d'\J	.	.	.	8ff/J	8f'/J	.	.	.	.	.	.	.	.	.	.	8f\J	.	8dd'\J	.	8ff'\J	.	.	.
4B-\	.	(16e\LL	.	4f/	.	16gg/LL	(16g/LL	.	.	.	.	.	.	.	.	.	.	16g\LL	.	16ee\LL	.	(16gg\LL	.	.	.
.	.	16d\	.	.	.	16ff/	16f/	.	.	.	.	.	.	.	.	.	.	16f\	.	16dd\	.	16ff\	.	.	.
.	.	16c\	.	.	.	16ee/	16e/	.	.	.	.	.	.	.	.	.	.	16e\	.	16cc\	.	16ee\	.	.	.
.	.	16B-\JJ)	.	.	.	16dd/JJ	16d/JJ)	.	.	.	.	.	.	.	.	.	.	16d\JJ	.	16b-\JJ	.	16dd\JJ)	.	.	.
*	*	*	*	*	*	*Xcue	*	*	*	*	*	*	*	*	*	*	*	*	*	*	*	*	*	*	*
*	*	*	*	*	*	*v	*v	*	*	*	*	*	*	*	*	*	*	*	*	*	*	*	*	*	*
!	!	!	!	!	!	!LO:LB:g=original	!	!	!	!	!	!	!	!	!	!	!	!	!	!	!	!	!	!
=14	=14	=14	=14	=14	=14	=14	=14	=14	=14	=14	=14	=14	=14	=14	=14	=14	=14	=14	=14	=14	=14	=14	=14	=14
4F\	.	8.A/L	.	4f/	.	(8.c/L	.	2.ryy	.	.	2.ryy	2.ryy	8.a\L	.	8.cc\L	.	(8.c\L	.	8.a/L	.	8.cc\L|	.	2.ryy	2.ryy
.	.	32F/LL	.	.	.	32A/LL	.	.	.	.	.	.	16f\Jk	.	16a\Jk	.	32A\LL	.	32f/LL	.	(32a\LL	.	.	.
.	.	32G/JJJ	.	.	.	32B-/JJJ)	.	.	.	.	.	.	.	.	.	.	32B-\JJJ)	.	32g/JJJ	.	32b-\JJJ)	.	.	.
8r	.	8A/	.	4r	.	8c/	.	.	.	.	.	.	8a\	.	8cc\	.	8c|\L	.	8a/	.	8cc\|	.	.	.
8F'\L	.	8r	.	.	.	8r	.	.	.	.	.	.	8r	.	8r	.	8F|\	.	8r	.	8r	.	.	.
(8G\	.	8r	.	8r	.	8r	.	.	.	.	.	.	4r	.	4r	.	8G|\	.	8r	.	8r	.	.	.
!	!	!	!	!	!LO:DY:a	!	!	!	!	!	!	!	!	!	!	!	!	!	!	!LO:DY:t=for&colon;	!	!	!	!
8A\J)	.	8d\	.	8a/	f	8ff\	.	.	.	.	.	.	.	.	.	.	8A|\J	.	8a/	f	8ff\	.	.	.
!	!	!	!	!	!	!	!	!	!	!	!	!	!LO:LB:g=original	!	!	!	!	!	!LO:LB:g=original	!	!	!	!	!
=15	=15	=15	=15	=15	=15	=15	=15	=15	=15	=15	=15	=15	=15	=15	=15	=15	=15	=15	=15	=15	=15	=15	=15	=15
!	!	!LO:TX:t=P:problem:mixed beam	!	!	!	!	!	!	!	!	!	!	!	!	!	!	!	!	!	!	!	!LO:DY:t=for	!	!
4B-\	.	8B-/L	.	16b-/	.	16ee\LL	f	2.ryy	.	.	2.ryy	2.ryy	4r	.	4r	.	4B-\	.	8b-/L	.	8dd\L	f	2.ryy	2.ryy
!	!	!	!	!LO:N:vis=8	!	!	!	!	!	!	!	!	!	!	!	!	!	!	!	!	!	!	!	!
.	.	.	.	16b-/LL	.	16dd\	.	.	.	.	.	.	.	.	.	.	.	.	.	.	.	.	.	.
.	.	8b-\	.	16a/	.	16cc\	.	.	.	.	.	.	.	.	.	.	.	.	16a/L	.	16cc\L	.	.	.
.	.	.	.	16g/JJ	.	16b-\JJ	.	.	.	.	.	.	.	.	.	.	.	.	16g/JJ	.	16b-\JJ	.	.	.
!	!	!	!	!	!	!	!	!	!	!	!	!	!	!	!	!	!	!	!	!	!LO:LB:g=original	!	!	!
4c\	.	8cc\	.	4f/	.	4a/	.	.	.	.	.	.	4f\	.	4a\	.	4c\	.	4f/	.	4a/	.	.	.
.	.	8cc\	.	.	.	.	.	.	.	.	.	.	.	.	.	.	.	.	.	.	.	.	.	.
4C/	.	8cc\	.	4e/	.	4g/	.	.	.	.	.	.	4c/	.	4g\	.	4C/	.	4e/	.	4g/	.	.	.
.	.	8c/J	.	.	.	.	.	.	.	.	.	.	.	.	.	.	.	.	.	.	.	.	.	.
!	!	!	!	!	!	!	!	!	!	!	!	!	!	!	!LO:LB:g=original	!	!	!	!	!	!	!	!	!
=16	=16	=16	=16	=16	=16	=16	=16	=16	=16	=16	=16	=16	=16	=16	=16	=16	=16	=16	=16	=16	=16	=16	=16	=16
*	*	*	*	*	*	*^	*	*	*	*	*	*	*	*	*	*	*	*	*	*	*	*	*	*
*	*	*	*	*	*	*cue	*	*	*	*	*	*	*	*	*	*	*	*	*	*	*	*	*	*	*
!	!	!LO:TX:a:i:t=Dolce	!	!	!	!	!	!	!	!	!	!	!	!	!	!	!	!	!	!LO:TX:a:i:t=Solo	!	!LO:TX:b:i:t=Solo	!	!	!
4F\	.	4F/	.	4c/	.	4a	4A/	p	2.ryy	.	.	2.ryy	2.ryy	4F/	.	4c/	.	4A\	.	4f/	p	4a/	.	2.ryy	2.ryy
!	!	!	!	!	!	!	!	!	!	!	!	!	!	!	!	!	!	!	!	!LO:TX:b:i:t=Dol&colon;	!	!	!	!	!
4r	.	4G/	.	4r	.	4b-	4B-/	.	.	.	.	.	.	4r	.	4r	.	4B-\	.	4g/	.	4b-/	.	.	.
!	!	!	!	!	!	!	!	!	!	!	!	!	!	!	!	!	!	!	!	!	!	!	!LO:DY:t=p&colon;	!	!
4r	.	4A/	.	4f/	.	4cc	4c/	.	.	.	.	.	.	4r	.	4r	.	4c\	.	4a/	.	4cc/	p	.	.
=17	=17	=17	=17	=17	=17	=17	=17	=17	=17	=17	=17	=17	=17	=17	=17	=17	=17	=17	=17	=17	=17	=17	=17	=17	=17
!	!	!	!	!	!	!	!	!	!	!	!	!	!	!LO:TX:a:t=1	!	!LO:TX:a:t=1	!	!	!	!	!	!	!	!	!
4BB-/	.	(8.B-\L	.	4f/	.	8.dd/L	8.d/L	.	2.ryy	0.r	.	2.ryy	2.ryy	2.r	.	2.r	.	(8.d\L	.	8.b-\L	.	(8.dd\L	.	2.ryy	2.ryy
.	.	16c\K)	.	.	.	16ee/Jk	16e/Jk	.	.	.	.	.	.	.	.	.	.	16e\Jk)	.	16cc\Jk	.	16ee\K)	.	.	.
4r	.	8d'\	.	4r	.	8ff/L	8f/L	.	.	.	.	.	.	.	.	.	.	8f|\L	.	8dd'\L	.	8ff'\	.	.	.
.	.	8d'\J	.	.	.	8ff/J	8f/J	.	.	.	.	.	.	.	.	.	.	8f|\J	.	8dd'\J	.	8ff'\J	.	.	.
!	!	!	!	!	!	!	!	!	!	!	!	!	!	!	!	!	!	!LO:LB:g=original	!	!	!	!	!	!	!
4BB-/	.	(16e\LL	.	4e/	.	16gg/LL	16g/LL	.	.	.	.	.	.	.	.	.	.	(16g\LL	.	(16ee\LL	.	(16gg\LL	.	.	.
.	.	16d\	.	.	.	16ff/	16f/	.	.	.	.	.	.	.	.	.	.	16f\	.	16dd\	.	16ff\	.	.	.
.	.	16c\	.	.	.	16ee/	16e/	.	.	.	.	.	.	.	.	.	.	16e\	.	16cc\	.	16ee\	.	.	.
.	.	16B-\JJ)	.	.	.	16dd/JJ	16d/JJ	.	.	.	.	.	.	.	.	.	.	16d\JJ)	.	16b-\JJ)	.	16dd\JJ)	.	.	.
=18	=18	=18	=18	=18	=18	=18	=18	=18	=18	=18	=18	=18	=18	=18	=18	=18	=18	=18	=18	=18	=18	=18	=18	=18	=18
!	!	!	!	!	!	!LO:N:vis=8	!LO:N:vis=8	!	!	!	!	!	!	!	!	!	!	!	!	!	!	!	!	!	!
4F\	.	8.A/L	.	4f/	.	8.cc/L	8.c/L	.	2.ryy	.	.	2.ryy	2.ryy	8.a\L	.	8.cc\L	.	(8.c\L	.	8.a/L	.	(8.cc\L	.	2.ryy	2.ryy
.	.	(32F/LL	.	.	.	32a/LL	32A/LL	.	.	.	.	.	.	16f\Jk	.	16a\Jk	.	32A\LL	.	(32f/LL	.	32a\LL	.	.	.
.	.	32G/JJJ)	.	.	.	32b-/JJJ	32B-/JJJ	.	.	.	.	.	.	.	.	.	.	32B-\JJJ)	.	32g/JJJ)	.	32b-\JJJ)	.	.	.
8r	.	8A/	.	4r	.	8cc/	8c/	.	.	.	.	.	.	8a\	.	8cc\	.	8c\L|	.	8a/	.	8cc\	.	.	.
*	*	*	*	*	*	*Xcue	*	*	*	*	*	*	*	*	*	*	*	*	*	*	*	*	*	*	*
8F'\L	.	8r	.	.	.	8r	8ryy	.	.	.	.	.	.	8r	.	8r	.	8F\|	.	8r	.	8r	.	.	.
(8G\	.	8r	.	8r	.	8r	4ryy	.	.	.	.	.	.	4r	.	4r	.	8G\|	.	8r	.	8r	.	.	.
!	!	!	!	!	!	!	!	!	!	!	!	!	!	!	!	!	!	!	!	!	!LO:DY:t=for&colon;	!	!	!	!
8A\J)	.	8f\	.	8a/	.	8ff\	.	f	.	.	.	.	.	.	.	.	.	8A\J|	.	8a/	f	8ff\	.	.	.
*	*	*	*	*	*	*v	*v	*	*	*	*	*	*	*	*	*	*	*	*	*	*	*	*	*	*
!LO:LB:g=original	!	!	!	!LO:LB:g=original	!	!	!	!	!	!	!	!	!	!	!	!	!	!	!	!	!	!	!	!
=19	=19	=19	=19	=19	=19	=19	=19	=19	=19	=19	=19	=19	=19	=19	=19	=19	=19	=19	=19	=19	=19	=19	=19	=19
.	.	.	.	16qqcc/	.	.	.	.	.	.	.	.	.	.	.	.	.	.	.	.	.	.	.	.
8B-\L	.	8d\L	.	8b-\L	.	(16ee\LL	.	2.ryy	.	.	2.ryy	2.ryy	4r	.	4r	.	4B-\	.	8b-/L	.	8dd\L	.	2.ryy	2.ryy
.	.	.	.	.	.	16dd\	.	.	.	.	.	.	.	.	.	.	.	.	.	.	.	.	.	.
8G\J	.	8B-\J	.	16a\L	.	16dd\	.	.	.	.	.	.	.	.	.	.	.	.	16a/L	.	16cc\L	.	.	.
.	.	.	.	16g\JJ	.	16cc\JJ)	.	.	.	.	.	.	.	.	.	.	.	.	16g/JJ	.	16b-\JJ	.	.	.
4c\	.	2c\	.	4f/	.	4a/	.	.	.	.	.	.	4f\	.	4a\	.	4c\	.	4f/	.	4a/	.	.	.
4C/	.	.	.	4e/	.	4g/	.	.	.	.	.	.	4c/	.	4g\	.	4C/	.	4e/	.	4g/	.	.	.
=20	=20	=20	=20	=20	=20	=20	=20	=20	=20	=20	=20	=20	=20	=20	=20	=20	=20	=20	=20	=20	=20	=20	=20	=20
4F\	.	4c\	.	(16A/LL	.	4f/	p	2.ryy	.	.	2.ryy	2.ryy	4A/	.	4f\	p	4F\	.	4f/	.	4a/	.	2.ryy	2.ryy
.	.	.	.	16c/)	.	.	.	.	.	.	.	.	.	.	.	.	.	.	.	.	.	.	.	.
.	.	.	.	(16A/	.	.	.	.	.	.	.	.	.	.	.	.	.	.	.	.	.	.	.	.
.	.	.	.	16c/JJ)	.	.	.	.	.	.	.	.	.	.	.	.	.	.	.	.	.	.	.	.
4r	.	4r	.	(16A/LL	.	8r	.	.	.	.	.	.	4r	.	4r	.	4r	.	4r	.	4r	.	.	.
.	.	.	.	16c/)	.	.	.	.	.	.	.	.	.	.	.	.	.	.	.	.	.	.	.	.
.	.	.	.	(16A/	.	8a/L	.	.	.	.	.	.	.	.	.	.	.	.	.	.	.	.	.	.
.	.	.	.	16c/JJ)	.	.	.	.	.	.	.	.	.	.	.	.	.	.	.	.	.	.	.	.
!	!	!	!	!	!	!	!	!	!	!	!	!	!	!	!	!	!	!	!	!LO:DY:t=p&colon;	!	!LO:DY:t=p&colon;	!	!
4C/	.	4g\	.	(16B-/LL	.	8b-/	.	.	.	.	.	.	4c/	.	4g\	.	4C/	.	4g/	p	4ee\	p	.	.
.	.	.	.	16c/)	.	.	.	.	.	.	.	.	.	.	.	.	.	.	.	.	.	.	.	.
.	.	.	.	(16B-/	.	8e/J	.	.	.	.	.	.	.	.	.	.	.	.	.	.	.	.	.	.
.	.	.	.	16c/JJ)	.	.	.	.	.	.	.	.	.	.	.	.	.	.	.	.	.	.	.	.
=21	=21	=21	=21	=21	=21	=21	=21	=21	=21	=21	=21	=21	=21	=21	=21	=21	=21	=21	=21	=21	=21	=21	=21	=21
4F\	.	4a\	.	16A/LL	.	4f/	.	2.ryy	1.r	.	2.ryy	2.ryy	4f\	.	4a\	.	4FF/	.	4a/	.	4ff\	.	2.ryy	2.ryy
.	.	.	.	16c/	.	.	.	.	.	.	.	.	.	.	.	.	.	.	.	.	.	.	.	.
.	.	.	.	16A/	.	.	.	.	.	.	.	.	.	.	.	.	.	.	.	.	.	.	.	.
.	.	.	.	16c/JJ	.	.	.	.	.	.	.	.	.	.	.	.	.	.	.	.	.	.	.	.
4r	.	4r	.	(16A/LL	.	8r	.	.	.	.	.	.	4r	.	4r	.	4r	.	4r	.	4r	.	.	.
.	.	.	.	16c/)	.	.	.	.	.	.	.	.	.	.	.	.	.	.	.	.	.	.	.	.
.	.	.	.	(16A/	.	8a/L	.	.	.	.	.	.	.	.	.	.	.	.	.	.	.	.	.	.
.	.	.	.	16c/JJ)	.	.	.	.	.	.	.	.	.	.	.	.	.	.	.	.	.	.	.	.
4C/	.	4g\	.	16B-/LL	.	8b-/	.	.	.	.	.	.	4c/	.	4g\	.	4C/	.	4b-/	.	4ee\	.	.	.
.	.	.	.	16c/	.	.	.	.	.	.	.	.	.	.	.	.	.	.	.	.	.	.	.	.
.	.	.	.	16B-/	.	8e/J	.	.	.	.	.	.	.	.	.	.	.	.	.	.	.	.	.	.
.	.	.	.	16c/JJ	.	.	.	.	.	.	.	.	.	.	.	.	.	.	.	.	.	.	.	.
!	!	!	!	!	!	!LO:LB:g=original	!	!	!	!	!	!	!	!	!	!	!	!	!	!	!	!	!	!
=22	=22	=22	=22	=22	=22	=22	=22	=22	=22	=22	=22	=22	=22	=22	=22	=22	=22	=22	=22	=22	=22	=22	=22	=22
2C/	.	2g\	.	2B-/	.	2g/	.	2.ryy	.	.	2.ryy	2.ryy	2c/	.	2g\	.	2C/	.	2b-/	.	2ee\	.	2.ryy	2.ryy
4F\	.	4a\	.	4A/	.	4f/	.	.	.	.	.	.	4A/	.	4f\	.	4F\	.	4a/	.	4ff\	.	.	.
!	!	!LO:LB:g=original	!	!	!	!	!	!	!	!	!	!	!	!	!	!	!	!	!	!	!	!	!	!
=23	=23	=23	=23	=23	=23	=23	=23	=23	=23	=23	=23	=23	=23	=23	=23	=23	=23	=23	=23	=23	=23	=23	=23	=23
!	!	!	!LO:DY:t=p&colon;	!	!LO:DY:a	!	!	!	!	!	!	!	!LO:TX:a:t=12	!	!LO:TX:a:t=12	!	!	!	!LO:TX:a:t=4.	!	!LO:TX:a:t=4.	!	!	!
4F\	.	2cc\	p	16a/LL	p	(16cc\LL	.	2.ryy	(16c\LL	Wi-	2.ryy	2.ryy	0.r	.	0.r	.	4F\	.	0.r	.	0.r	.	2.ryy	2.ryy
.	.	.	.	16g/	.	16b-\	.	.	16B-\	.	.	.	.	.	.	.	.	.	.	.	.	.	.	.
.	.	.	.	16f/	.	16a\	.	.	16A\	.	.	.	.	.	.	.	.	.	.	.	.	.	.	.
.	.	.	.	16g/JJ	.	16b-\JJ)	.	.	16B-\JJ)	.	.	.	.	.	.	.	.	.	.	.	.	.	.	.
4r	.	.	.	4a/	.	4cc\	.	.	4c\	-dzia-	.	.	.	.	.	.	4r	.	.	.	.	.	.	.
4AA/	.	4cc\	.	4A/	.	4f/	.	.	4F/	-ła	.	.	.	.	.	.	4AA/	.	.	.	.	.	.	.
=24	=24	=24	=24	=24	=24	=24	=24	=24	=24	=24	=24	=24	=24	=24	=24	=24	=24	=24	=24	=24	=24	=24	=24	=24
!	!	!	!	!	!	!LO:N:vis=4	!	!	!	!	!	!	!	!	!	!	!	!	!	!	!	!	!	!
2C/	.	2cc\	.	4.e/	.	4.g/	.	2.ryy	4.G/	Ko-	2.ryy	2.ryy	.	.	.	.	2C/	.	.	.	.	.	2.ryy	2.ryy
.	.	.	.	16f/LL	.	(16a/LL	.	.	16A/LL	-chan-	.	.	.	.	.	.	.	.	.	.	.	.	.	.
.	.	.	.	16g/JJ	.	16b-/JJ)	.	.	16B-/JJ	.	.	.	.	.	.	.	.	.	.	.	.	.	.	.
4F\	.	4cc\	.	4f/	.	4a/	.	.	4A\	-ka	.	.	.	.	.	.	4F\	.	.	.	.	.	.	.
=25	=25	=25	=25	=25	=25	=25	=25	=25	=25	=25	=25	=25	=25	=25	=25	=25	=25	=25	=25	=25	=25	=25	=25	=25
4B-\	.	4b-\	.	8B-/L	.	8g'/L	.	2.ryy	8G/	Swe-	2.ryy	2.ryy	.	.	.	.	4BB-/	.	.	.	.	.	2.ryy	2.ryy
.	.	.	.	8d/J	.	8b-'/J	.	.	8B-\	.	.	.	.	.	.	.	.	.	.	.	.	.	.	.
4c\	.	4cc\	.	8c/L	.	(16b-/LL	.	.	(16B-\LL	.	.	.	.	.	.	.	4C/	.	.	.	.	.	.	.
.	.	.	.	.	.	16a/)	.	.	16A\)	.	.	.	.	.	.	.	.	.	.	.	.	.	.	.
.	.	.	.	8B-/	.	(16a/	.	.	(16A\	.	.	.	.	.	.	.	.	.	.	.	.	.	.	.
.	.	.	.	.	.	16g/JJ)	.	.	16G\JJ)	.	.	.	.	.	.	.	.	.	.	.	.	.	.	.
4C/	.	4c\	.	8A/	.	(16g/LL	.	.	(16G/LL	.	.	.	.	.	.	.	4CC/	.	.	.	.	.	.	.
.	.	.	.	.	.	16f/)	.	.	16F/)	.	.	.	.	.	.	.	.	.	.	.	.	.	.	.
.	.	.	.	8G/J	.	(16f/	.	.	(16F/	.	.	.	.	.	.	.	.	.	.	.	.	.	.	.
.	.	.	.	.	.	16e/JJ)	.	.	16E/JJ)	.	.	.	.	.	.	.	.	.	.	.	.	.	.	.
=26	=26	=26	=26	=26	=26	=26	=26	=26	=26	=26	=26	=26	=26	=26	=26	=26	=26	=26	=26	=26	=26	=26	=26	=26
.	.	.	.	.	.	16qqf/LL	.	.	16qqE/LL	.	.	.	.	.	.	.	.	.	.	.	.	.	.	.
.	.	.	.	.	.	16qqg/JJ	.	.	16qqG/JJ	.	.	.	.	.	.	.	.	.	.	.	.	.	.	.
8F\L	.	2c\	.	2A/	.	2f/	.	2.ryy	2F/	-go	2.ryy	2.ryy	.	.	.	.	8FF/L	.	.	.	.	.	2.ryy	2.ryy
8D\	.	.	.	.	.	.	.	.	.	.	.	.	.	.	.	.	(8D/	.	.	.	.	.	.	.
8C\	.	.	.	.	.	.	.	.	.	.	.	.	.	.	.	.	8C/	.	.	.	.	.	.	.
8BB-\	.	.	.	.	.	.	.	.	.	.	.	.	.	.	.	.	8BB-/	.	.	.	.	.	.	.
8AA\	.	4r	.	4r	.	4r	.	.	4r	.	.	.	.	.	.	.	8AA/	.	.	.	.	.	.	.
8GG\J	.	.	.	.	.	.	.	.	.	.	.	.	.	.	.	.	8GG/J)	.	.	.	.	.	.	.
=27	=27	=27	=27	=27	=27	=27	=27	=27	=27	=27	=27	=27	=27	=27	=27	=27	=27	=27	=27	=27	=27	=27	=27	=27
!	!	!	!	!	!	!	!	!	!	!	!	!	!	!	!	!	!	!	!	!LO:DY:t=p&colon;	!	!LO:DY:t=pia&colon;	!	!
4FF/	.	2cc\	.	(16a/LL	.	(16cc\LL	.	2.ryy	(16c\LL	od	2.ryy	2.ryy	0.r	.	0.r	.	4FF/	.	2a/	p	2cc\	p	2.ryy	2.ryy
.	.	.	.	16g/	.	16b-\	.	.	16B-\	.	.	.	.	.	.	.	.	.	.	.	.	.	.	.
.	.	.	.	16f/	.	16a\	.	.	16A\	.	.	.	.	.	.	.	.	.	.	.	.	.	.	.
.	.	.	.	16g/JJ)	.	16b-\JJ)	.	.	16B-\JJ)	.	.	.	.	.	.	.	.	.	.	.	.	.	.	.
!	!	!	!	!LO:LB:g=original	!	!	!	!	!	!	!	!	!	!	!	!	!	!	!	!	!	!	!	!
4r	.	.	.	4a/	.	4cc\	.	.	4c\	wszy-	.	.	.	.	.	.	4r	.	.	.	.	.	.	.
4A\	.	4cc\	.	4A/	.	4f/	.	.	4F/	-stkich	.	.	.	.	.	.	4AA/	.	4f/	.	4f/	.	.	.
!	!	!	!	!	!	!	!	!	!LO:LB:g=original	!	!	!	!	!	!	!	!	!	!	!	!	!	!	!
=28	=28	=28	=28	=28	=28	=28	=28	=28	=28	=28	=28	=28	=28	=28	=28	=28	=28	=28	=28	=28	=28	=28	=28	=28
4c\	.	2cc\	.	4.e/	.	4.g/	.	2.ryy	4.G/	o-	2.ryy	2.ryy	.	.	.	.	2C/	.	4.e/	.	4.g/	.	2.ryy	2.ryy
4C/	.	.	.	.	.	.	.	.	.	.	.	.	.	.	.	.	.	.	.	.	.	.	.	.
.	.	.	.	16f/LL	.	(16a/LL	.	.	16A/LL	.	.	.	.	.	.	.	.	.	16f/LL	.	16a/LL	.	.	.
.	.	.	.	16g/JJ	.	16b-/JJ)	.	.	16B-/JJ	.	.	.	.	.	.	.	.	.	16g/JJ	.	16b-/JJ	.	.	.
4F\	.	4cc\	.	4f/	.	4a/	.	.	4A/	-pu-	.	.	.	.	.	.	4F\	.	4f/	.	4a/	.	.	.
!	!	!	!	!	!	!	!	!	!	!	!	!	!	!	!	!	!	!	!LO:LB:g=original	!	!	!	!	!
=29	=29	=29	=29	=29	=29	=29	=29	=29	=29	=29	=29	=29	=29	=29	=29	=29	=29	=29	=29	=29	=29	=29	=29	=29
4F\	.	(8ff\L	.	8f/L	.	(8a/L	.	2.ryy	8A/L	-szczo-	2.ryy	2.ryy	.	.	.	.	4F\	.	8a/L	.	(8ff\L	.	2.ryy	2.ryy
.	.	8ee\	.	8e/	.	8g/)	.	.	8G/	.	.	.	.	.	.	.	.	.	8g/J	.	8ee\	.	.	.
4r	.	8dd\	.	8d/	.	(8b-/	.	.	8B-/	.	.	.	.	.	.	.	4r	.	(8b-/L	.	8dd\	.	.	.
.	.	8cc\	.	8c/	.	8a/)	.	.	8A/	.	.	.	.	.	.	.	.	.	8a/	.	8cc\	.	.	.
4BB-/	.	8b-\	.	8B-/	.	(8g/	.	.	8G/	.	.	.	.	.	.	.	4BB-/	.	8g/	.	8b-\	.	.	.
.	.	8a\J)	.	8A/J	.	8f/J)	.	.	8F/J	.	.	.	.	.	.	.	.	.	8f/J)	.	8a\J)	.	.	.
!	!	!	!	!	!	!	!	!	!	!	!	!	!	!	!	!	!LO:LB:g=original	!	!	!	!	!	!	!
=30	=30	=30	=30	=30	=30	=30	=30	=30	=30	=30	=30	=30	=30	=30	=30	=30	=30	=30	=30	=30	=30	=30	=30	=30
4.C/	.	4a\	.	4A/	.	4f/	.	2.ryy	4F/	-ne-	2.ryy	2.ryy	.	.	.	.	4.C/	.	4f/	.	4a/	.	2.ryy	2.ryy
.	.	4g\	.	4G/	.	4e/	.	.	4E/	-go	.	.	.	.	.	.	.	.	4e/	.	4g/	.	.	.
8c'\L	.	.	.	.	.	.	.	.	.	.	.	.	.	.	.	.	8C/L	.	.	.	.	.	.	.
8G'\	.	4r	.	4r	.	4r	.	.	4r	.	.	.	.	.	.	.	8E/	.	4r	.	4r	.	.	.
8E'\J	.	.	.	.	.	.	.	.	.	.	.	.	.	.	.	.	8G/J	.	.	.	.	.	.	.
!LO:LB:g=original	!	!	!	!	!	!LO:LB:g=original	!	!	!	!	!	!	!	!	!	!	!	!	!	!	!LO:LB:g=original	!	!	!
=31	=31	=31	=31	=31	=31	=31	=31	=31	=31	=31	=31	=31	=31	=31	=31	=31	=31	=31	=31	=31	=31	=31	=31	=31
!	!	!	!	!	!	!	!	!	!	!	!	!	!	!	!	!	!	!	!LO:TX:a:t=4.	!	!LO:TX:a:t=4.	!	!	!
4C/	.	2cc\	.	4r	.	4g/	.	2.ryy	(4G/	od	2.ryy	2.ryy	0.r	.	0.r	.	4c\	.	0.r	.	0.r	.	2.ryy	2.ryy
4E/	.	.	.	4g/	.	8cc\L	.	.	8c\L)	.	.	.	.	.	.	.	4E\	.	.	.	.	.	.	.
.	.	.	.	.	.	8dd\	.	.	8d\J	wszy-	.	.	.	.	.	.	.	.	.	.	.	.	.	.
4C/	.	4cc\	.	4g/	.	8cc\	.	.	8c\L	.	.	.	.	.	.	.	4C\	.	.	.	.	.	.	.
.	.	.	.	.	.	8b-\J	.	.	8B-\J	.	.	.	.	.	.	.	.	.	.	.	.	.	.	.
=32	=32	=32	=32	=32	=32	=32	=32	=32	=32	=32	=32	=32	=32	=32	=32	=32	=32	=32	=32	=32	=32	=32	=32	=32
4F\	.	4cc\	.	8g/L	.	8b-'/L	.	2.ryy	(8B-\L	.	2.ryy	2.ryy	.	.	.	.	4F\	.	.	.	.	.	2.ryy	2.ryy
.	.	.	.	8f/	.	8a'/	.	.	8A\)	.	.	.	.	.	.	.	.	.	.	.	.	.	.	.
4r	.	8r	.	8g/	.	8b-'/	.	.	8B-\J|	.	.	.	.	.	.	.	4r	.	.	.	.	.	.	.
.	.	8cc\L|	.	8B-/	.	8g'/	.	.	8G/	.	.	.	.	.	.	.	.	.	.	.	.	.	.	.
4r	.	(8cc\	.	8G/	.	8e'/	.	.	8E/	.	.	.	.	.	.	.	4r	.	.	.	.	.	.	.
.	.	8f\J)	.	8A/J	.	8f'/J	.	.	8F/	.	.	.	.	.	.	.	.	.	.	.	.	.	.	.
=33	=33	=33	=33	=33	=33	=33	=33	=33	=33	=33	=33	=33	=33	=33	=33	=33	=33	=33	=33	=33	=33	=33	=33	=33
4D\	.	2d\	.	4f#X/	.	4a/	.	2.ryy	4A\	-stkich	2.ryy	2.ryy	.	.	.	.	4D\	.	.	.	.	.	2.ryy	2.ryy
4F#X\	.	.	.	4a/	.	(8dd\L	.	.	(8d\L	o-	.	.	.	.	.	.	4F#X\	.	.	.	.	.	.	.
.	.	.	.	.	.	8ee\	.	.	8e\J)	.	.	.	.	.	.	.	.	.	.	.	.	.	.	.
4D\	.	4d\	.	4a/	.	8dd\	.	.	8d\L	-pu-	.	.	.	.	.	.	4D\	.	.	.	.	.	.	.
.	.	.	.	.	.	8cc\J)	.	.	8c\J	.	.	.	.	.	.	.	.	.	.	.	.	.	.	.
=34	=34	=34	=34	=34	=34	=34	=34	=34	=34	=34	=34	=34	=34	=34	=34	=34	=34	=34	=34	=34	=34	=34	=34	=34
4G\	.	4d\	.	8a/L	.	8cc'\L	.	2.ryy	(8c\L	-szczo-	2.ryy	2.ryy	.	.	.	.	4G\	.	.	.	.	.	2.ryy	2.ryy
.	.	.	.	8g/	.	8bn'\	.	.	8Bn\)	.	.	.	.	.	.	.	.	.	.	.	.	.	.	.
4r	.	8r	.	8a/	.	8cc'\	.	.	8c\J|	.	.	.	.	.	.	.	4r	.	.	.	.	.	.	.
!	!	!	!	!	!	!	!	!	!LO:LB:g=original	!	!	!	!	!	!	!	!	!	!	!	!	!	!	!
.	.	8d'\L	.	8c/	.	8a'\J	.	.	8A\	.	.	.	.	.	.	.	.	.	.	.	.	.	.	.
4r	.	(8d\	.	8A/	.	8f#X'/L	.	.	8F#X/	.	.	.	.	.	.	.	4r	.	.	.	.	.	.	.
.	.	8g\J)	.	8Bn/J	.	8g'/J	.	.	8G/	.	.	.	.	.	.	.	.	.	.	.	.	.	.	.
=35	=35	=35	=35	=35	=35	=35	=35	=35	=35	=35	=35	=35	=35	=35	=35	=35	=35	=35	=35	=35	=35	=35	=35	=35
*	*	*	*	*	*	*	*	*	*	*	*	*	*2\right	*	*	*	*	*	*2\right	*	*	*	*	*
!	!	!	!	!LO:SIC:v:s=4.bn\	!	!	!	!	!	!	!	!	!	!	!	!	!	!	!	!LO:DY:t=p&colon;	!	!LO:DY:t=p&colon;	!	!
4G\	.	2g\	.	4.b-\	.	4.dd\	.	2.ryy	4.d\	-ne-	2.ryy	2.ryy	2g\	.	2g\	.	4G\	.	2bn\	p	2dd\	p	2.ryy	2.ryy
4GG/	.	.	.	.	.	.	.	.	.	.	.	.	.	.	.	.	4GG/	.	.	.	.	.	.	.
.	.	.	.	16cc\LL	.	16ee\LL	.	.	(16e\LL	.	.	.	.	.	.	.	.	.	.	.	.	.	.	.
.	.	.	.	16dd\JJ	.	16ffn\JJ	.	.	16fn\JJ)	.	.	.	.	.	.	.	.	.	.	.	.	.	.	.
4C/	.	4g\	.	4cc\	.	4ee\	.	.	4e\	-go	.	.	4c/	.	4g\	.	4C/	.	4cc\	.	4ee\	.	.	.
=36	=36	=36	=36	=36	=36	=36	=36	=36	=36	=36	=36	=36	=36	=36	=36	=36	=36	=36	=36	=36	=36	=36	=36	=36
4Fn\	.	8a\	.	8fn/L	.	(8dd'\L	.	2.ryy	(8d\L	o-	2.ryy	2.ryy	4r	.	4r	.	4Fn\	.	4r	.	4r	.	2.ryy	2.ryy
.	.	4a\	.	8e/	.	8cc#X'\	.	.	8c#X\)	.	.	.	.	.	.	.	.	.	.	.	.	.	.	.
4r	.	.	.	8f/	.	8dd'\	.	.	8d\J|	.	.	.	4r	.	4r	.	4r	.	4r	.	4r	.	.	.
.	.	8a\	.	8g/	.	8ee'\	.	.	8e\	-pu-	.	.	.	.	.	.	.	.	.	.	.	.	.	.
!	!	!LO:LB:g=original	!	!	!	!	!	!	!	!	!	!	!	!	!	!	!	!	!	!	!	!	!	!
4F\	.	8a\L	.	8a/	.	8ff'\	.	.	8f\	.	.	.	4f\	.	4a\	.	4A\	.	4dd\	.	4ff\	.	.	.
.	.	8a\J	.	8f/J	.	8dd'\J)	.	.	8d\	-szczo-	.	.	.	.	.	.	.	.	.	.	.	.	.	.
=37	=37	=37	=37	=37	=37	=37	=37	=37	=37	=37	=37	=37	=37	=37	=37	=37	=37	=37	=37	=37	=37	=37	=37	=37
4G\	.	4g\	.	4e/	.	4ccn\	.	2.ryy	4cn\	-ne-	2.ryy	2.ryy	4g\	.	4g\	.	4G\	.	4cc\	.	4ee\	.	2.ryy	2.ryy
!	!	!	!	!	!	!	!	!	!	!	!	!	!	!	!	!	!LO:TX:t=P:problem:mixed beam	!	!LO:SIC:v:s=4bn\	!	!	!	!	!
4GG/	.	4g\	.	4d/	.	4bn/	.	.	4Bn\	-go.	.	.	4g\	.	4g\	.	8G\L	.	4b-\	.	4dd\	.	.	.
.	.	.	.	.	.	.	.	.	.	.	.	.	.	.	.	.	8GG/	.	.	.	.	.	.	.
4r	.	4r	.	4r	.	4r	.	.	4r	.	.	.	4r	.	4r	.	8BBn/	.	4r	.	4r	.	.	.
.	.	.	.	.	.	.	.	.	.	.	.	.	.	.	.	.	8D/J	.	.	.	.	.	.	.
=38	=38	=38	=38	=38	=38	=38	=38	=38	=38	=38	=38	=38	=38	=38	=38	=38	=38	=38	=38	=38	=38	=38	=38	=38
*	*	*	*	*2\right	*	*2\right	*	*	*	*	*	*	*	*	*	*	*2\right	*	*	*	*	*	*	*
*tremolo	*	*tremolo	*	*tremolo	*	*tremolo	*	*	*	*	*	*	*	*	*	*	*tremolo	*	*	*	*	*	*	*
!	!	!	!	!LO:SIC:v:s=8bn\L	!	!	!	!	!	!	!	!	!LO:TX:a:t=17	!	!LO:TX:a:t=17	!	!	!	!LO:TX:a:t=5.	!	!LO:TX:a:t=5.	!	!	!
8G\L	.	8g\L	.	8b-\L	.	8dd\L	p	2.ryy	(16d\LL	Gdy	2.ryy	2.ryy	0.r	.	0.r	.	8G\L	.	0.r	.	0.r	.	2.ryy	2.ryy
.	.	.	.	.	.	.	.	.	16c\	.	.	.	.	.	.	.	.	.	.	.	.	.	.	.
!	!	!	!	!LO:SIC:v:s=8b\	!	!	!	!	!	!	!	!	!	!	!	!	!	!	!	!	!	!	!	!
8G\	.	8g\	.	8b-\	.	8dd\	.	.	16Bn\	.	.	.	.	.	.	.	8G\	.	.	.	.	.	.	.
.	.	.	.	.	.	.	.	.	16c\JJ)	.	.	.	.	.	.	.	.	.	.	.	.	.	.	.
!	!	!	!	!LO:SIC:v:s=8b\	!	!	!	!	!	!	!	!	!	!	!	!	!	!	!	!	!	!	!	!
8G\	.	8g\	.	8b-\	.	8dd\	.	.	16d\LL	.	.	.	.	.	.	.	8G\	.	.	.	.	.	.	.
.	.	.	.	.	.	.	.	.	16e\	.	.	.	.	.	.	.	.	.	.	.	.	.	.	.
!	!	!	!	!LO:SIC:v:s=8b\	!	!	!	!	!	!	!	!	!	!	!	!	!	!	!	!	!	!	!	!
8G\	.	8g\	.	8b-\	.	8dd\	.	.	16d\	.	.	.	.	.	.	.	8G\	.	.	.	.	.	.	.
.	.	.	.	.	.	.	.	.	16c\JJ	.	.	.	.	.	.	.	.	.	.	.	.	.	.	.
!	!	!	!	!LO:SIC:v:s=8b\	!	!	!	!	!	!	!	!	!	!	!	!	!	!	!	!	!	!	!	!
8G\	.	8g\	.	8b-\	.	8dd\	.	.	16B\LL	.	.	.	.	.	.	.	8G\	.	.	.	.	.	.	.
.	.	.	.	.	.	.	.	.	16A\	.	.	.	.	.	.	.	.	.	.	.	.	.	.	.
!	!	!	!	!LO:SIC:v:s=8b\J	!	!	!	!	!	!	!	!	!	!	!	!	!	!	!	!	!	!	!	!
8G\J	.	8g\J	.	8b-\J	.	8dd\J	.	.	16G\	.	.	.	.	.	.	.	8G\J	.	.	.	.	.	.	.
.	.	.	.	.	.	.	.	.	16F\JJ	.	.	.	.	.	.	.	.	.	.	.	.	.	.	.
!	!	!	!	!LO:LB:g=original	!	!	!	!	!LO:LB:g=original	!	!	!	!	!	!	!	!	!	!	!	!	!	!	!
=39	=39	=39	=39	=39	=39	=39	=39	=39	=39	=39	=39	=39	=39	=39	=39	=39	=39	=39	=39	=39	=39	=39	=39	=39
8G\L	.	8g\L	.	8cc\L	.	8ee\L	.	2.ryy	16F/LL	.	2.ryy	2.ryy	.	.	.	.	8G\L	.	.	.	.	.	2.ryy	2.ryy
.	.	.	.	.	.	.	.	.	16E/	.	.	.	.	.	.	.	.	.	.	.	.	.	.	.
8G\	.	8g\	.	8cc\	.	8ee\	.	.	16D/	.	.	.	.	.	.	.	8G\	.	.	.	.	.	.	.
.	.	.	.	.	.	.	.	.	16E/JJ	.	.	.	.	.	.	.	.	.	.	.	.	.	.	.
8G\	.	8g\	.	8cc\	.	8ee\	.	.	4E/	.	.	.	.	.	.	.	8G\	.	.	.	.	.	.	.
8G\	.	8g\	.	8cc\	.	8ee\	.	.	.	.	.	.	.	.	.	.	8G\	.	.	.	.	.	.	.
8G\	.	8g\	.	8cc\	.	8ee\	.	.	4r	.	.	.	.	.	.	.	8G\	.	.	.	.	.	.	.
8G\J	.	8g\J	.	8cc\J	.	8ee\J	.	.	.	.	.	.	.	.	.	.	8G\J	.	.	.	.	.	.	.
=40	=40	=40	=40	=40	=40	=40	=40	=40	=40	=40	=40	=40	=40	=40	=40	=40	=40	=40	=40	=40	=40	=40	=40	=40
8G\L	.	8g\L	.	8cc\L	.	8ee\L	.	2.ryy	(16e\LL	.	2.ryy	2.ryy	.	.	.	.	8G\L	.	.	.	.	.	2.ryy	2.ryy
.	.	.	.	.	.	.	.	.	16d\	.	.	.	.	.	.	.	.	.	.	.	.	.	.	.
8G\	.	8g\	.	8cc\	.	8ee\	.	.	16c\	.	.	.	.	.	.	.	8G\	.	.	.	.	.	.	.
.	.	.	.	.	.	.	.	.	16d\JJ)	.	.	.	.	.	.	.	.	.	.	.	.	.	.	.
8G\	.	8g\	.	8cc\	.	8ee\	.	.	(16e\LL	.	.	.	.	.	.	.	8G\	.	.	.	.	.	.	.
.	.	.	.	.	.	.	.	.	16d\	.	.	.	.	.	.	.	.	.	.	.	.	.	.	.
8G\	.	8g\	.	8cc\	.	8ee\	.	.	16c\	.	.	.	.	.	.	.	8G\	.	.	.	.	.	.	.
!	!	!	!	!	!	!	!	!	!LO:SIC:v:s=16Bn\JJ)	!	!	!	!	!	!	!	!	!	!	!	!	!	!	!
.	.	.	.	.	.	.	.	.	16B-\JJ)	.	.	.	.	.	.	.	.	.	.	.	.	.	.	.
8G\	.	8g\	.	8cc\	.	8ee\	.	.	16c\LL	.	.	.	.	.	.	.	8G\	.	.	.	.	.	.	.
!	!	!	!	!	!	!	!	!	!LO:SIC:v:s=16B\	!	!	!	!	!	!	!	!	!	!	!	!	!	!	!
.	.	.	.	.	.	.	.	.	16B-\	.	.	.	.	.	.	.	.	.	.	.	.	.	.	.
8G\J	.	8g\J	.	8cc\J	.	8ee\J	.	.	16A\	.	.	.	.	.	.	.	8G\J	.	.	.	.	.	.	.
.	.	.	.	.	.	.	.	.	16G\JJ	.	.	.	.	.	.	.	.	.	.	.	.	.	.	.
=41	=41	=41	=41	=41	=41	=41	=41	=41	=41	=41	=41	=41	=41	=41	=41	=41	=41	=41	=41	=41	=41	=41	=41	=41
8G\L	.	8g\L	.	8bn\L	.	8dd\L	.	2.ryy	16G/LL	.	2.ryy	2.ryy	.	.	.	.	8G\L	.	.	.	.	.	2.ryy	2.ryy
.	.	.	.	.	.	.	.	.	16F/	.	.	.	.	.	.	.	.	.	.	.	.	.	.	.
8G\	.	8g\	.	8b\	.	8dd\	.	.	16E/	.	.	.	.	.	.	.	8G\	.	.	.	.	.	.	.
.	.	.	.	.	.	.	.	.	16F/JJ	.	.	.	.	.	.	.	.	.	.	.	.	.	.	.
8G\	.	8g\	.	8b\	.	8dd\	.	.	4F/	.	.	.	.	.	.	.	8G\	.	.	.	.	.	.	.
8G\	.	8g\	.	8b\	.	8dd\	.	.	.	.	.	.	.	.	.	.	8G\	.	.	.	.	.	.	.
8G\	.	8g\	.	8b\	.	8dd\	.	.	4r	.	.	.	.	.	.	.	8G\	.	.	.	.	.	.	.
8G\J	.	8g\J	.	8b\J	.	8dd\J	.	.	.	.	.	.	.	.	.	.	8G\J	.	.	.	.	.	.	.
*	*	*	*	*	*	*Xtremolo	*	*	*	*	*	*	*	*	*	*	*	*	*	*	*	*	*	*
!	!	!	!	!	!	!LO:LB:g=original	!	!	!	!	!	!	!	!	!	!	!	!	!	!	!	!	!	!
=42	=42	=42	=42	=42	=42	=42	=42	=42	=42	=42	=42	=42	=42	=42	=42	=42	=42	=42	=42	=42	=42	=42	=42	=42
!	!	!	!	!LO:SIC:v:s=8bn\L	!	!	!	!	!	!	!	!	!	!	!	!	!	!	!	!	!	!	!	!
8G\L	.	8g\L	.	8b-\L	.	(16dd\LL	.	2.ryy	16f\LL	.	2.ryy	2.ryy	0.r	.	0.r	.	8G\L	.	2.r	.	2.r	.	2.ryy	2.ryy
.	.	.	.	.	.	16cc\	.	.	16e\	.	.	.	.	.	.	.	.	.	.	.	.	.	.	.
!	!	!	!	!LO:SIC:v:s=8b\	!	!	!	!	!	!	!	!	!	!	!	!	!	!	!	!	!	!	!	!
8G\	.	8g\	.	8b-\	.	16dd\	.	.	16d\	.	.	.	.	.	.	.	8G\	.	.	.	.	.	.	.
.	.	.	.	.	.	16ee\JJ)	.	.	16e\JJ	.	.	.	.	.	.	.	.	.	.	.	.	.	.	.
!	!	!	!	!LO:SIC:v:s=8b\	!	!	!	!	!	!	!	!	!	!	!	!	!	!	!	!	!	!	!	!
8G\	.	8g\	.	8b-\	.	(16ff\LL	.	.	16f\LL	.	.	.	.	.	.	.	8G\	.	.	.	.	.	.	.
.	.	.	.	.	.	16ee\	.	.	16e\	.	.	.	.	.	.	.	.	.	.	.	.	.	.	.
!	!	!	!	!LO:SIC:v:s=8b\	!	!	!	!	!	!	!	!	!	!	!	!	!	!	!	!	!	!	!	!
8G\	.	8g\	.	8b-\	.	16dd\	.	.	16d\	.	.	.	.	.	.	.	8G\	.	.	.	.	.	.	.
.	.	.	.	.	.	16cc\JJ)	.	.	16c\JJ	.	.	.	.	.	.	.	.	.	.	.	.	.	.	.
!	!	!	!	!LO:SIC:v:s=8b\	!	!	!	!	!	!	!	!	!	!	!	!	!	!	!	!	!	!	!	!
8G\	.	8g\	.	8b-\	.	(16bn\LL	.	.	16Bn\LL	.	.	.	.	.	.	.	8G\	.	.	.	.	.	.	.
.	.	.	.	.	.	16a\	.	.	16A\	.	.	.	.	.	.	.	.	.	.	.	.	.	.	.
!	!	!	!	!LO:SIC:v:s=8b\J	!	!	!	!	!	!	!	!	!	!	!	!	!	!	!	!	!	!	!	!
8G\J	.	8g\J	.	8b-\J	.	16g\	.	.	16G\	.	.	.	.	.	.	.	8G\J	.	.	.	.	.	.	.
.	.	.	.	.	.	16f\JJ)	.	.	16F\JJ	.	.	.	.	.	.	.	.	.	.	.	.	.	.	.
*Xtremolo	*	*Xtremolo	*	*Xtremolo	*	*	*	*	*	*	*	*	*	*	*	*	*Xtremolo	*	*	*	*	*	*	*
!	!	!	!	!	!	!	!	!	!	!	!	!	!	!	!	!	!LO:PB:g=original	!	!	!	!	!	!	!
=43	=43	=43	=43	=43	=43	=43	=43	=43	=43	=43	=43	=43	=43	=43	=43	=43	=43	=43	=43	=43	=43	=43	=43	=43
!	!	!	!	!	!LO:DY:a:t=p&colon;	!	!	!	!	!	!	!	!	!	!	!	!	!	!	!	!	!	!	!
4C/	.	8c\L	.	8f/L	p	8e/	.	2.ryy	8E/	na	2.ryy	2.ryy	.	.	.	.	4C/	.	4r	.	4r	.	2.ryy	2.ryy
!	!	!	!LO:DY:t=poco for&colon;	!	!LO:DY:a	!	!	!	!	!	!	!	!	!	!	!	!	!	!	!	!	!	!	!
.	.	16c\L	f	(16e/L	f	4gg\	.	.	4g\	Krzy-	.	.	.	.	.	.	.	.	.	.	.	.	.	.
.	.	16d\JJ	.	16f/JJ)	.	.	.	.	.	.	.	.	.	.	.	.	.	.	.	.	.	.	.	.
8r	.	8e\L|	.	8g/L	.	.	.	.	.	.	.	.	.	.	.	.	8r	.	4r	.	4r	.	.	.
8C'/L	.	8e\|	.	8g/J	.	8b-X\	.	.	8B-X\	.	.	.	.	.	.	.	8E\L|	.	.	.	.	.	.	.
.	.	.	.	.	.	16qqcc/	.	.	16qqc/	.	.	.	.	.	.	.	.	.	.	.	.	.	.	.
!	!	!	!	!	!	!	!	!	!	!	!	!	!	!	!	!	!	!	!	!LO:DY:t=p&colon;	!	!	!	!
8D'/	.	8f\|	.	8g/L	.	(8b-\L	.	.	8B-\L	.	.	.	.	.	.	.	8D\|	.	4g/	p	4b-X/	p	.	.
8E'/J	.	8g\J|	.	(16f/L	.	16a\L	.	.	16A\L	.	.	.	.	.	.	.	8C\J|	.	.	.	.	.	.	.
.	.	.	.	16g/JJ)	.	16b-\JJ)	.	.	16B-\JJ	.	.	.	.	.	.	.	.	.	.	.	.	.	.	.
=44	=44	=44	=44	=44	=44	=44	=44	=44	=44	=44	=44	=44	=44	=44	=44	=44	=44	=44	=44	=44	=44	=44	=44	=44
4F\	.	8f\L	.	8f/L	.	8a/	.	2.ryy	8A\	-zu	2.ryy	2.ryy	.	.	.	.	4F\	.	4f/	.	4a/	.	2.ryy	2.ryy
.	.	(16d\L	.	16f/L	.	4aa\	.	.	4a\	u-	.	.	.	.	.	.	.	.	.	.	.	.	.	.
.	.	16e\JJ)	.	16g/JJ	.	.	.	.	.	.	.	.	.	.	.	.	.	.	.	.	.	.	.	.
8r	.	8f#X'\L	.	8a/L	.	.	.	.	.	.	.	.	.	.	.	.	8r	.	4r	.	4r	.	.	.
8D'\L	.	8f#'\	.	8a/J	.	8cc\	.	.	8c\	.	.	.	.	.	.	.	(8F#X\L	.	.	.	.	.	.	.
.	.	.	.	.	.	8qqdd/	.	.	16qqd/	.	.	.	.	.	.	.	.	.	.	.	.	.	.	.
8E'\	.	8g'\	.	8a/L	.	(8cc\L	.	.	8c\L	.	.	.	.	.	.	.	8E\)	.	4a/	.	4cc\	.	.	.
8F#X'\J	.	8a'\J	.	(16g/L	.	16bn\L	.	.	16Bn\L	.	.	.	.	.	.	.	8D\J	.	.	.	.	.	.	.
.	.	.	.	16a/JJ)	.	16cc\JJ)	.	.	16c\JJ	.	.	.	.	.	.	.	.	.	.	.	.	.	.	.
!LO:LB:g=original	!	!	!	!	!	!	!	!	!LO:LB:g=original	!	!	!	!	!	!	!	!	!	!	!	!	!	!	!
=45	=45	=45	=45	=45	=45	=45	=45	=45	=45	=45	=45	=45	=45	=45	=45	=45	=45	=45	=45	=45	=45	=45	=45	=45
!	!	!LO:TX:t=P:problem:mixed beam	!	!	!	!LO:SIC:v:s=8bn\	!	!	!	!	!	!	!	!	!	!	!	!	!	!	!	!	!	!
4G\	.	8g\L	.	8g/L	.	8b-\	.	2.ryy	8Bn\	-mie-	2.ryy	2.ryy	.	.	.	.	4G\	.	4g/	.	4bn/	.	2.ryy	2.ryy
.	.	(16B-/L	.	16g/L	.	4dd\	.	.	4d\	.	.	.	.	.	.	.	.	.	.	.	.	.	.	.
.	.	16c/JJ)	.	16a/JJ	.	.	.	.	.	.	.	.	.	.	.	.	.	.	.	.	.	.	.	.
!	!	!	!	!LO:SIC:v:s=8bn/L	!	!	!	!	!	!	!	!	!	!	!	!	!	!	!	!	!	!	!	!
8r	.	8d'/L	.	8b-/L	.	.	.	.	.	.	.	.	.	.	.	.	8r	.	4r	.	4r	.	.	.
8G'\L	.	8B-'/	.	8d/J	.	8f/	.	.	8F/	.	.	.	.	.	.	.	8Bn\L|	.	.	.	.	.	.	.
.	.	.	.	.	.	16qqg/	.	.	16qqG/	.	.	.	.	.	.	.	.	.	.	.	.	.	.	.
8A'\	.	8c'/	.	8d/L	.	8f/L	.	.	8F/L	-rał	.	.	.	.	.	.	8A|\	.	4dd\	.	4ff\	.	.	.
8B-'\J	.	8d'/J	.	16c/L	.	(16e/L	.	.	16E/L	.	.	.	.	.	.	.	8G|\J	.	.	.	.	.	.	.
.	.	.	.	16d/JJ	.	16f/JJ)	.	.	16F/JJ	.	.	.	.	.	.	.	.	.	.	.	.	.	.	.
=46	=46	=46	=46	=46	=46	=46	=46	=46	=46	=46	=46	=46	=46	=46	=46	=46	=46	=46	=46	=46	=46	=46	=46	=46
4c\	.	4e 4G/	.	4c/	.	(16e/LL	.	2.ryy	(16E/LL	Gdy	2.ryy	2.ryy	0.r	.	0.r	.	4C/	.	4cc\	.	4ee\	.	2.ryy	2.ryy
.	.	.	.	.	.	16g/	.	.	16G/	.	.	.	.	.	.	.	.	.	.	.	.	.	.	.
.	.	.	.	.	.	16f/	.	.	16F/	.	.	.	.	.	.	.	.	.	.	.	.	.	.	.
.	.	.	.	.	.	16e/JJ)	.	.	16E/JJ	.	.	.	.	.	.	.	.	.	.	.	.	.	.	.
4r	.	4r	.	4r	.	(16f/LL	.	.	16F/LL	.	.	.	.	.	.	.	4r	.	4r	.	4r	.	.	.
.	.	.	.	.	.	16g/	.	.	16G/	.	.	.	.	.	.	.	.	.	.	.	.	.	.	.
.	.	.	.	.	.	16a/	.	.	16A/	.	.	.	.	.	.	.	.	.	.	.	.	.	.	.
!	!	!	!	!	!	!	!	!	!LO:SIC:v:s=16Bn/JJ)	!	!	!	!	!	!	!	!	!	!	!	!	!	!	!
.	.	.	.	.	.	16b-/JJ)	.	.	16B-/JJ)	.	.	.	.	.	.	.	.	.	.	.	.	.	.	.
4r	.	4r	.	4r	.	(16cc\LL	.	.	(16c\LL	.	.	.	.	.	.	.	4r	.	4r	.	4r	.	.	.
.	.	.	.	.	.	16dd\	.	.	16d\	.	.	.	.	.	.	.	.	.	.	.	.	.	.	.
.	.	.	.	.	.	16ee\	.	.	16e\	.	.	.	.	.	.	.	.	.	.	.	.	.	.	.
.	.	.	.	.	.	16ff\JJ)	.	.	16f\JJ)	.	.	.	.	.	.	.	.	.	.	.	.	.	.	.
=47	=47	=47	=47	=47	=47	=47	=47	=47	=47	=47	=47	=47	=47	=47	=47	=47	=47	=47	=47	=47	=47	=47	=47	=47
!	!	!	!	!	!	!	!	!	!	!	!	!	!	!	!	!	!	!	!LO:TX:a:t=8.	!	!LO:TX:a:t=8.	!	!	!
4r	.	4r	.	4r	.	4gg\	.	2.ryy	4g\	na	2.ryy	2.ryy	.	.	.	.	4r	.	0.r	.	0.r	.	2.ryy	2.ryy
4D\	.	4g\	.	4d/	.	(4bn\	.	.	4Bn\	Krzy-	.	.	.	.	.	.	4D\	.	.	.	.	.	.	.
4E\	.	4g\	.	4e/	.	4cc\)	.	.	4c\	-zu	.	.	.	.	.	.	4E\	.	.	.	.	.	.	.
=48	=48	=48	=48	=48	=48	=48	=48	=48	=48	=48	=48	=48	=48	=48	=48	=48	=48	=48	=48	=48	=48	=48	=48	=48
4F\	.	8a\L	.	8fn/L	.	(8dd\L	p	2.ryy	(8d\L	u-	2.ryy	2.ryy	.	.	.	.	4F\	.	.	.	.	.	2.ryy	2.ryy
.	.	8fn\J	.	8a/	.	16ee\L	.	.	16e\L	.	.	.	.	.	.	.	.	.	.	.	.	.	.	.
.	.	.	.	.	.	16ff\JJ)	.	.	16f\JJ	.	.	.	.	.	.	.	.	.	.	.	.	.	.	.
!	!	!LO:LB:g=original	!	!	!	!	!	!	!	!	!	!	!	!	!	!	!	!	!	!	!	!	!	!
4G\	.	8g\	.	8g/	.	(16ff\LL	.	.	16f\LL	-mie-	.	.	.	.	.	.	4G\	.	.	.	.	.	.	.
.	.	.	.	.	.	16ee\	.	.	16e\	.	.	.	.	.	.	.	.	.	.	.	.	.	.	.
.	.	4g\	.	8f/	.	16ee\	.	.	16e\	.	.	.	.	.	.	.	.	.	.	.	.	.	.	.
.	.	.	.	.	.	16dd\JJ)	.	.	16d\JJ)	.	.	.	.	.	.	.	.	.	.	.	.	.	.	.
!	!	!	!	!	!	!LO:LB:g=original	!	!	!	!	!	!	!	!	!	!	!	!	!	!	!	!	!	!
4GG/	.	.	.	8e/	.	(16dd\LL	.	.	(16d\LL	.	.	.	.	.	.	.	4GG/	.	.	.	.	.	.	.
.	.	.	.	.	.	16cc\)	.	.	16c\	.	.	.	.	.	.	.	.	.	.	.	.	.	.	.
.	.	8g\	.	8d/J	.	(16cc\	.	.	16c\	.	.	.	.	.	.	.	.	.	.	.	.	.	.	.
!	!	!	!	!	!	!LO:SIC:v:s=16bn\JJ)	!	!	!LO:SIC:v:s=16Bn\JJ)	!	!	!	!	!	!	!	!	!	!	!	!	!	!	!
.	.	.	.	.	.	16b-\JJ)	.	.	16B-\JJ)	.	.	.	.	.	.	.	.	.	.	.	.	.	.	.
=49	=49	=49	=49	=49	=49	=49	=49	=49	=49	=49	=49	=49	=49	=49	=49	=49	=49	=49	=49	=49	=49	=49	=49	=49
4C/	.	4g\	.	4e/	.	4cc\	.	2.ryy	4c\	-rał	2.ryy	2.ryy	.	.	.	.	4C/	.	.	.	.	.	2.ryy	2.ryy
4r	.	4r	.	8g/L	.	(8ee\L	.	.	(8e\L	na	.	.	.	.	.	.	4r	.	.	.	.	.	.	.
.	.	.	.	8e/	.	8cc\	.	.	8c\J)	.	.	.	.	.	.	.	.	.	.	.	.	.	.	.
4C/	.	4g\	.	8g/	.	8ee\	.	.	(8e\L	Krzy-	.	.	.	.	.	.	4C/	.	.	.	.	.	.	.
.	.	.	.	8e/J	.	8cc\J)	.	.	8c\J)	.	.	.	.	.	.	.	.	.	.	.	.	.	.	.
=50	=50	=50	=50	=50	=50	=50	=50	=50	=50	=50	=50	=50	=50	=50	=50	=50	=50	=50	=50	=50	=50	=50	=50	=50
4F\	.	4a\	.	16f/LL	.	(8a\L	.	2.ryy	(8A\L	-zu	2.ryy	2.ryy	0.r	.	0.r	.	4F\	.	.	.	.	.	2.ryy	2.ryy
.	.	.	.	16g/	.	.	.	.	.	.	.	.	.	.	.	.	.	.	.	.	.	.	.	.
.	.	.	.	16f/	.	8dd\	.	.	8d\)	.	.	.	.	.	.	.	.	.	.	.	.	.	.	.
.	.	.	.	16g/JJ	.	.	.	.	.	.	.	.	.	.	.	.	.	.	.	.	.	.	.	.
!	!	!	!	!LO:LB:g=original	!	!	!	!	!	!	!	!	!	!	!	!	!	!	!	!	!	!	!	!
4r	.	4r	.	(16e/LL	.	8ff\	.	.	(8f\	.	.	.	.	.	.	.	4r	.	.	.	.	.	.	.
.	.	.	.	16g/	.	.	.	.	.	.	.	.	.	.	.	.	.	.	.	.	.	.	.	.
.	.	.	.	16e/	.	8dd\	.	.	8d\J)	.	.	.	.	.	.	.	.	.	.	.	.	.	.	.
.	.	.	.	16g/JJ)	.	.	.	.	.	.	.	.	.	.	.	.	.	.	.	.	.	.	.	.
4F\	.	4a\	.	(16f/LL	.	8ff\	.	.	(8f\L	u-	.	.	.	.	.	.	4F\	.	.	.	.	.	.	.
.	.	.	.	16g/	.	.	.	.	.	.	.	.	.	.	.	.	.	.	.	.	.	.	.	.
.	.	.	.	16f/)	.	8dd\J)	.	.	8d\J)	.	.	.	.	.	.	.	.	.	.	.	.	.	.	.
.	.	.	.	16g/JJ	.	.	.	.	.	.	.	.	.	.	.	.	.	.	.	.	.	.	.	.
=51	=51	=51	=51	=51	=51	=51	=51	=51	=51	=51	=51	=51	=51	=51	=51	=51	=51	=51	=51	=51	=51	=51	=51	=51
8E\L	.	2g\	.	16e/LL	.	(8ee\L	.	2.ryy	8e\L	-mie-	2.ryy	2.ryy	.	.	.	.	8E\L	.	0.r	.	0.r	.	2.ryy	2.ryy
.	.	.	.	16g/	.	.	.	.	.	.	.	.	.	.	.	.	.	.	.	.	.	.	.	.
8F\J	.	.	.	16e/	.	16ff\L	.	.	16f\L	.	.	.	.	.	.	.	8F\J	.	.	.	.	.	.	.
.	.	.	.	16g/JJ	.	16dd\JJ)	.	.	16d\JJ	.	.	.	.	.	.	.	.	.	.	.	.	.	.	.
4G\	.	.	.	16e/LL	.	4cc\	.	.	4c\	.	.	.	.	.	.	.	4G\	.	.	.	.	.	.	.
.	.	.	.	16g/	.	.	.	.	.	.	.	.	.	.	.	.	.	.	.	.	.	.	.	.
.	.	.	.	16e/	.	.	.	.	.	.	.	.	.	.	.	.	.	.	.	.	.	.	.	.
.	.	.	.	16g/JJ	.	.	.	.	.	.	.	.	.	.	.	.	.	.	.	.	.	.	.	.
!	!	!	!	!	!	!LO:SIC:v:s=4bn\	!	!	!LO:SIC:v:s=4Bn\	!	!	!	!	!	!	!	!	!	!	!	!	!	!	!
4GG/	.	4g\	.	16f/LL	.	4b-\	.	.	4B-\	-rał	.	.	.	.	.	.	4GG/	.	.	.	.	.	.	.
.	.	.	.	16g/	.	.	.	.	.	.	.	.	.	.	.	.	.	.	.	.	.	.	.	.
.	.	.	.	16f/	.	.	.	.	.	.	.	.	.	.	.	.	.	.	.	.	.	.	.	.
.	.	.	.	16g/JJ	.	.	.	.	.	.	.	.	.	.	.	.	.	.	.	.	.	.	.	.
=52	=52	=52	=52	=52	=52	=52	=52	=52	=52	=52	=52	=52	=52	=52	=52	=52	=52	=52	=52	=52	=52	=52	=52	=52
!	!	!	!	!LO:TX:t=P:problem:takty nr 52-54 zapisane repetycją	!	!	!	!	!	!	!	!	!	!	!	!	!	!	!	!	!	!	!	!
4C/	.	4g\	.	4e/yy	.	8g\L	.	2.ryy	8G\L	u-	2.ryy	2.ryy	.	.	.	.	4C/	.	.	.	.	.	2.ryy	2.ryy
.	.	.	.	.	.	8cc\J	.	.	8c\	.	.	.	.	.	.	.	.	.	.	.	.	.	.	.
4r	.	4r	.	8g/Lyy	.	(8ee\L	.	.	8e\	.	.	.	.	.	.	.	4r	.	.	.	.	.	.	.
.	.	.	.	8e/yy	.	8cc\	.	.	8c\	.	.	.	.	.	.	.	.	.	.	.	.	.	.	.
4C/	.	4g\	.	8g/yy	.	8ee\	.	.	8e\	.	.	.	.	.	.	.	4C/	.	.	.	.	.	.	.
.	.	.	.	8e/Jyy	.	8cc\J)	.	.	8c\J	.	.	.	.	.	.	.	.	.	.	.	.	.	.	.
!	!	!	!	!	!	!	!	!	!	!	!	!	!	!	!	!	!LO:LB:g=original	!	!	!	!	!	!	!
=53	=53	=53	=53	=53	=53	=53	=53	=53	=53	=53	=53	=53	=53	=53	=53	=53	=53	=53	=53	=53	=53	=53	=53	=53
4F\	.	4a\	.	16f/LLyy	.	(8a\L	.	2.ryy	8A\L	-mie-	2.ryy	2.ryy	.	.	.	.	4F\	.	.	.	.	.	2.ryy	2.ryy
.	.	.	.	16g/yy	.	.	.	.	.	.	.	.	.	.	.	.	.	.	.	.	.	.	.	.
.	.	.	.	16f/yy	.	8dd\	.	.	8d\	.	.	.	.	.	.	.	.	.	.	.	.	.	.	.
.	.	.	.	16g/JJyy	.	.	.	.	.	.	.	.	.	.	.	.	.	.	.	.	.	.	.	.
4r	.	4r	.	(16e/LLyy	.	8ff\	.	.	8f\	.	.	.	.	.	.	.	4r	.	.	.	.	.	.	.
.	.	.	.	16g/yy	.	.	.	.	.	.	.	.	.	.	.	.	.	.	.	.	.	.	.	.
.	.	.	.	16e/yy	.	8dd\	.	.	8d\	.	.	.	.	.	.	.	.	.	.	.	.	.	.	.
.	.	.	.	16g/JJ)yy	.	.	.	.	.	.	.	.	.	.	.	.	.	.	.	.	.	.	.	.
4F\	.	4a\	.	(16f/LLyy	.	8ff\	.	.	8f\	.	.	.	.	.	.	.	4F\	.	.	.	.	.	.	.
.	.	.	.	16g/yy	.	.	.	.	.	.	.	.	.	.	.	.	.	.	.	.	.	.	.	.
!	!	!	!	!	!	!	!	!	!LO:TX:b:i:t=Volti Citto Solo:rj	!	!	!	!	!	!	!	!	!	!	!	!	!	!	!
.	.	.	.	16f/)yy	.	8dd\J)	.	.	8d\J	.	.	.	.	.	.	.	.	.	.	.	.	.	.	.
.	.	.	.	16g/JJyy	.	.	.	.	.	.	.	.	.	.	.	.	.	.	.	.	.	.	.	.
!	!	!	!	!	!	!	!	!	!LO:PB:g=original	!	!	!	!	!	!	!	!	!	!	!	!	!	!	!
=54	=54	=54	=54	=54	=54	=54	=54	=54	=54	=54	=54	=54	=54	=54	=54	=54	=54	=54	=54	=54	=54	=54	=54	=54
8E\L	.	2g\	.	16e/LLyy	.	(16ee\LL	.	2.ryy	16e\LL	.	2.ryy	2.ryy	2.r	.	2.r	.	8E\L	.	.	.	.	.	2.ryy	2.ryy
.	.	.	.	16g/yy	.	16ff\	.	.	16f\	.	.	.	.	.	.	.	.	.	.	.	.	.	.	.
8F\J	.	.	.	16e/yy	.	16gg\	.	.	16g\	.	.	.	.	.	.	.	8F\J	.	.	.	.	.	.	.
.	.	.	.	16g/JJyy	.	16aa\JJ)	.	.	16a\JJ	.	.	.	.	.	.	.	.	.	.	.	.	.	.	.
4G\	.	.	.	16e/LLyy	.	4cc\	.	.	4c\	.	.	.	.	.	.	.	4G\	.	.	.	.	.	.	.
.	.	.	.	16g/yy	.	.	.	.	.	.	.	.	.	.	.	.	.	.	.	.	.	.	.	.
.	.	.	.	16e/yy	.	.	.	.	.	.	.	.	.	.	.	.	.	.	.	.	.	.	.	.
.	.	.	.	16g/JJyy	.	.	.	.	.	.	.	.	.	.	.	.	.	.	.	.	.	.	.	.
!	!	!	!	!	!	!LO:SIC:v:s=4bn\	!	!	!	!	!	!	!	!	!	!	!	!	!	!	!	!	!	!
4GG/	.	4g\	.	16f/LLyy	.	4b-\	.	.	4Bn\	.	.	.	.	.	.	.	4GG/	.	.	.	.	.	.	.
.	.	.	.	16g/yy	.	.	.	.	.	.	.	.	.	.	.	.	.	.	.	.	.	.	.	.
.	.	.	.	16f/yy	.	.	.	.	.	.	.	.	.	.	.	.	.	.	.	.	.	.	.	.
!	!	!	!	!LO:TX:a:t=vi	!	!	!	!	!	!	!	!	!	!	!	!	!	!	!	!	!	!	!	!
.	.	.	.	16g/JJyy	.	.	.	.	.	.	.	.	.	.	.	.	.	.	.	.	.	.	.	.
=55	=55	=55	=55	=55	=55	=55	=55	=55	=55	=55	=55	=55	=55	=55	=55	=55	=55	=55	=55	=55	=55	=55	=55	=55
!	!	!	!	!	!	!	!	!	!LO:SIC:v:s=16qqBn/LL	!	!	!	!	!	!	!	!	!	!	!	!	!	!	!
.	.	.	.	.	.	.	.	.	16qqB-/LL	.	.	.	.	.	.	.	.	.	.	.	.	.	.	.
.	.	.	.	.	.	.	.	.	16qqd/JJ	.	.	.	.	.	.	.	.	.	.	.	.	.	.	.
*	*	*	*	*	*	*	*	*	*2\right	*	*	*	*	*	*	*	*	*	*	*	*	*	*	*
!	!	!	!LO:DY:t=for&colon;	!LO:TX:a:t=de	!	!LO:TX:t=P:problem:mixed beam	!LO:DY:t=f&colon;	!	!	!	!	!	!	!	!	!	!	!	!	!LO:DY:t=fort&colon;	!	!	!	!
4C/	.	4g\	f	4cc\	.	8cc/L	f	2.ryy	2c\	-rał	2.ryy	2.ryy	4c/	.	4g\	f	4C/	.	4cc\	f	4cc\	.	2.ryy	2.ryy
.	.	.	.	.	.	8ccc\J	.	.	.	.	.	.	.	.	.	.	.	.	.	.	.	.	.	.
!	!	!	!	!	!	!	!	!	!	!	!	!	!	!	!	!	!	!	!	!	!	!LO:DY:t=for&colon;	!	!
8r	.	8r	.	(16cc\LL	.	(16ccc\LL	.	.	.	.	.	.	4r	.	4r	.	8r	.	8r	.	8r	f	.	.
.	.	.	.	16bn\	.	16bbn\)	.	.	.	.	.	.	.	.	.	.	.	.	.	.	.	.	.	.
!LO:TX:t=P:problem:mixed beam	!	!	!	!	!	!	!	!	!	!	!	!	!	!	!	!	!LO:TX:t=P:problem:mixed beam	!	!	!	!	!	!	!
8c\L	.	8e'\L	.	16b\	.	(16bb\	.	.	.	.	.	.	.	.	.	.	8c\L	.	8cc\L	.	8aa\L|	.	.	.
.	.	.	.	16a\JJ)	.	16aa\JJ)	.	.	.	.	.	.	.	.	.	.	.	.	.	.	.	.	.	.
8d\	.	8d'\	.	(16a/LL	.	(16aa\LL	.	.	4r	.	.	.	4r	.	4r	.	8d\	.	8b-\	.	(8gg\	.	.	.
.	.	.	.	16g/)	.	16gg\)	.	.	.	.	.	.	.	.	.	.	.	.	.	.	.	.	.	.
8D/J	.	8d'\J	.	(16g/	.	(16gg\	.	.	.	.	.	.	.	.	.	.	8D/J	.	8a\J	.	8ff#X\J)	.	.	.
.	.	.	.	16f#X/JJ)	.	16ff#X\JJ)	.	.	.	.	.	.	.	.	.	.	.	.	.	.	.	.	.	.
!LO:LB:g=original	!	!	!	!	!	!	!	!	!	!	!	!	!	!	!	!	!	!	!LO:LB:g=original	!	!	!	!	!
=56	=56	=56	=56	=56	=56	=56	=56	=56	=56	=56	=56	=56	=56	=56	=56	=56	=56	=56	=56	=56	=56	=56	=56	=56
!	!	!	!	!	!	!	!	!	!LO:TX:a:t=7	!	!	!	!	!	!	!	!	!	!	!	!	!	!	!
4G\	.	4d\	.	(8g/L	.	8gg\L	.	2.ryy	0.r	.	2.ryy	2.ryy	4g\	.	4g\	.	4G\	.	4b-\	.	4gg\	.	2.ryy	2.ryy
.	.	.	.	8a/J)	.	8ffn\J	.	.	.	.	.	.	.	.	.	.	.	.	.	.	.	.	.	.
8r	.	8r	.	(16a/LL	.	(16ff\LL	.	.	.	.	.	.	4r	.	4r	.	8r	.	8r	.	8r	.	.	.
.	.	.	.	16g/	.	16ee\)	.	.	.	.	.	.	.	.	.	.	.	.	.	.	.	.	.	.
!LO:TX:t=P:problem:mixed beam	!	!	!	!	!	!	!	!	!	!	!	!	!	!	!	!	!LO:TX:t=P:problem:mixed beam	!	!	!	!	!	!	!
8Fn\L	.	8a'\L	.	16g/	.	(16ee\	.	.	.	.	.	.	.	.	.	.	(8Fn\L	.	8dd\L	.	8ffn'\L	.	.	.
.	.	.	.	16f/JJ)	.	16dd\JJ)	.	.	.	.	.	.	.	.	.	.	.	.	.	.	.	.	.	.
8G\	.	8g'\	.	(16f/LL	.	(16dd\LL	.	.	.	.	.	.	8g\L	.	8g\L	.	8G\	.	8cc\	.	(8ee\	.	.	.
.	.	.	.	16e/	.	16cc\)	.	.	.	.	.	.	.	.	.	.	.	.	.	.	.	.	.	.
8GG/J	.	8g'\J	.	16e/	.	(16cc\	.	.	.	.	.	.	8g\J	.	8g\J	.	8GG/J)	.	8g\J	.	8dd\J)	.	.	.
!	!	!	!	!	!	!LO:SIC:v:s=16bn\JJ)	!	!	!	!	!	!	!	!	!	!	!	!	!	!	!	!	!	!
.	.	.	.	16d/JJ)	.	16b-\JJ)	.	.	.	.	.	.	.	.	.	.	.	.	.	.	.	.	.	.
!	!	!	!	!	!	!LO:LB:g=original	!	!	!	!	!	!	!LO:LB:g=original	!	!LO:LB:g=original	!	!	!	!	!	!	!	!	!
=57	=57	=57	=57	=57	=57	=57	=57	=57	=57	=57	=57	=57	=57	=57	=57	=57	=57	=57	=57	=57	=57	=57	=57	=57
4C/	.	4g\	.	2e/	.	4cc\	.	2.ryy	.	.	2.ryy	2.ryy	4c/	.	4g\	.	4C/	.	4e/	.	4cc\	.	2.ryy	2.ryy
4r	.	4r	.	.	.	4g\	.	.	.	.	.	.	4r	.	4r	.	4r	.	4r	.	4r	.	.	.
4E\	.	4c\	.	4g/	.	4b-X\	.	.	.	.	.	.	4r	.	4r	.	4E\	.	4b-X\	.	4ee\	.	.	.
=58	=58	=58	=58	=58	=58	=58	=58	=58	=58	=58	=58	=58	=58	=58	=58	=58	=58	=58	=58	=58	=58	=58	=58	=58
4F\	.	4c\	.	4c/	.	(16a\LL	.	2.ryy	.	.	2.ryy	2.ryy	4f\	.	4a\	.	4F\	.	4a/	.	(16ff\LL	.	2.ryy	2.ryy
.	.	.	.	.	.	16cc#X\	.	.	.	.	.	.	.	.	.	.	.	.	.	.	16cc#X\	.	.	.
.	.	.	.	.	.	16dd\	.	.	.	.	.	.	.	.	.	.	.	.	.	.	16dd\	.	.	.
.	.	.	.	.	.	16cc#\JJ)	.	.	.	.	.	.	.	.	.	.	.	.	.	.	16cc#\JJ	.	.	.
4r	.	4r	.	4r	.	(16dd\LL	.	.	.	.	.	.	4r	.	4r	.	4r	.	4r	.	16dd\LL	.	.	.
.	.	.	.	.	.	16ee\	.	.	.	.	.	.	.	.	.	.	.	.	.	.	16ee\	.	.	.
.	.	.	.	.	.	16ff\	.	.	.	.	.	.	.	.	.	.	.	.	.	.	16ff\	.	.	.
.	.	.	.	.	.	16gg\JJ)	.	.	.	.	.	.	.	.	.	.	.	.	.	.	16gg\JJ	.	.	.
!	!	!	!	!	!	!	!	!	!	!	!	!	!	!	!	!	!	!	!	!	!LO:LB:g=original	!	!	!
4r	.	4r	.	4r	.	(16aa\LL	.	.	.	.	.	.	4f\	.	4a\	.	4r	.	4r	.	16aa\LL	.	.	.
.	.	.	.	.	.	16ff\	.	.	.	.	.	.	.	.	.	.	.	.	.	.	16ff\	.	.	.
.	.	.	.	.	.	16ee\	.	.	.	.	.	.	.	.	.	.	.	.	.	.	16ee\)	.	.	.
.	.	.	.	.	.	16dd\JJ)	.	.	.	.	.	.	.	.	.	.	.	.	.	.	16dd\JJ	.	.	.
=59	=59	=59	=59	=59	=59	=59	=59	=59	=59	=59	=59	=59	=59	=59	=59	=59	=59	=59	=59	=59	=59	=59	=59	=59
8r	.	8r	.	2e/	.	4g/	.	2.ryy	.	.	2.ryy	2.ryy	4g\	.	4g\	.	8r	.	4r	.	4g/	.	2.ryy	2.ryy
!LO:TX:a:t=g	!	!	!	!	!	!	!	!	!	!	!	!	!	!	!	!	!LO:TX:t=P:problem:mixed beam	!	!	!	!	!	!	!
8G\	.	8c/L	.	.	.	.	.	.	.	.	.	.	.	.	.	.	8G\L	.	.	.	.	.	.	.
!LO:TX:t=P:problem:mixed beam	!	!	!	!	!	!	!	!	!	!	!	!	!	!	!	!	!	!	!	!	!	!	!	!
8G\L	.	8c/	.	.	.	16ccn\LL	.	.	.	.	.	.	8g\L	.	8g\L	.	8G\	.	4g/	.	8cc\L	.	.	.
.	.	.	.	.	.	16dd\	.	.	.	.	.	.	.	.	.	.	.	.	.	.	.	.	.	.
8G\	.	8c/	.	.	.	16cc\	.	.	.	.	.	.	16g\L	.	16g\L	.	8G\	.	.	.	8dd\J	.	.	.
.	.	.	.	.	.	16dd\JJ	.	.	.	.	.	.	16g\JJ	.	16g\JJ	.	.	.	.	.	.	.	.	.
8GG/	.	8Bn/	.	4f 4G/	.	4dd\	.	.	.	.	.	.	8g\L	.	8g\L	.	8GG/	.	4bn/	.	4ddT\	.	.	.
8GG/J	.	8B/J	.	.	.	.	.	.	.	.	.	.	8g\J	.	8g\J	.	8GG/J	.	.	.	.	.	.	.
=60	=60	=60	=60	=60	=60	=60	=60	=60	=60	=60	=60	=60	=60	=60	=60	=60	=60	=60	=60	=60	=60	=60	=60	=60
4C/	.	4c\	.	(16e/LL	.	4cc\	.	2.ryy	1.r	.	2.ryy	2.ryy	4c/	.	4g\	.	4C/	.	4cc\	.	4cc\	.	2.ryy	2.ryy
.	.	.	.	16g/	.	.	.	.	.	.	.	.	.	.	.	.	.	.	.	.	.	.	.	.
.	.	.	.	16e/	.	.	.	.	.	.	.	.	.	.	.	.	.	.	.	.	.	.	.	.
.	.	.	.	16g/JJ)	.	.	.	.	.	.	.	.	.	.	.	.	.	.	.	.	.	.	.	.
*	*	*	*	*rep	*	*	*	*	*	*	*	*	*	*	*	*	*	*	*	*	*	*	*	*
4r	.	4r	.	(16e/LL	.	8r	.	.	.	.	.	.	4r	.	4r	.	4r	.	4r	.	4r	.	.	.
.	.	.	.	16g/	.	.	.	.	.	.	.	.	.	.	.	.	.	.	.	.	.	.	.	.
.	.	.	.	16e/	.	(8ee\L	.	.	.	.	.	.	.	.	.	.	.	.	.	.	.	.	.	.
.	.	.	.	16g/JJ)	.	.	.	.	.	.	.	.	.	.	.	.	.	.	.	.	.	.	.	.
*	*	*	*	*Xrep	*	*	*	*	*	*	*	*	*	*	*	*	*	*	*	*	*	*	*	*
4GG/	.	4d\	.	(16f/LL	.	8ff\	.	.	.	.	.	.	4g\	.	4g\	.	4GG/	.	4cc\	.	4dd\	.	.	.
.	.	.	.	16g/	.	.	.	.	.	.	.	.	.	.	.	.	.	.	.	.	.	.	.	.
!	!	!	!	!	!	!LO:SIC:v:s=8bn\J)	!	!	!	!	!	!	!	!	!	!	!	!	!	!	!	!	!	!
.	.	.	.	16f/	.	8b-\J)	.	.	.	.	.	.	.	.	.	.	.	.	.	.	.	.	.	.
.	.	.	.	16g/JJ)	.	.	.	.	.	.	.	.	.	.	.	.	.	.	.	.	.	.	.	.
!	!	!LO:LB:g=original	!	!	!	!	!	!	!	!	!	!	!	!	!	!	!	!	!	!	!	!	!	!
=61	=61	=61	=61	=61	=61	=61	=61	=61	=61	=61	=61	=61	=61	=61	=61	=61	=61	=61	=61	=61	=61	=61	=61	=61
4C/	.	4c\	.	(16e/LL	.	4cc\	.	2.ryy	.	.	2.ryy	2.ryy	4c/	.	4g\	.	4C/	.	4cc\	.	4ee\	.	2.ryy	2.ryy
.	.	.	.	16g/	.	.	.	.	.	.	.	.	.	.	.	.	.	.	.	.	.	.	.	.
.	.	.	.	16e/	.	.	.	.	.	.	.	.	.	.	.	.	.	.	.	.	.	.	.	.
.	.	.	.	16g/JJ)	.	.	.	.	.	.	.	.	.	.	.	.	.	.	.	.	.	.	.	.
*	*	*	*	*rep	*	*	*	*	*	*	*	*	*	*	*	*	*	*	*	*	*	*	*	*
4r	.	4r	.	(16e/LL	.	8r	.	.	.	.	.	.	4r	.	4r	.	4r	.	4r	.	4r	.	.	.
.	.	.	.	16g/	.	.	.	.	.	.	.	.	.	.	.	.	.	.	.	.	.	.	.	.
.	.	.	.	16e/	.	8ee\L	.	.	.	.	.	.	.	.	.	.	.	.	.	.	.	.	.	.
.	.	.	.	16g/JJ)	.	.	.	.	.	.	.	.	.	.	.	.	.	.	.	.	.	.	.	.
*	*	*	*	*Xrep	*	*	*	*	*	*	*	*	*	*	*	*	*	*	*	*	*	*	*	*
4G\	.	4d\	.	16f/LL	.	8ff\	.	.	.	.	.	.	4g\	.	4g\	.	4GG/	.	4dd\	.	4ff\	.	.	.
.	.	.	.	16g/	.	.	.	.	.	.	.	.	.	.	.	.	.	.	.	.	.	.	.	.
!	!	!	!	!	!	!LO:SIC:v:s=8bn\J	!	!	!	!	!	!	!	!	!	!	!	!	!	!	!	!	!	!
.	.	.	.	16f/	.	8b-\J	.	.	.	.	.	.	.	.	.	.	.	.	.	.	.	.	.	.
!	!	!	!	!LO:TX:a:t=Re	!	!	!	!	!	!	!	!	!	!	!	!	!	!	!	!	!	!	!	!
.	.	.	.	16g/JJ	.	.	.	.	.	.	.	.	.	.	.	.	.	.	.	.	.	.	.	.
!	!	!	!	!LO:LB:g=original	!	!	!	!	!	!	!	!	!	!	!	!	!	!	!	!	!	!	!	!
=62	=62	=62	=62	=62	=62	=62	=62	=62	=62	=62	=62	=62	=62	=62	=62	=62	=62	=62	=62	=62	=62	=62	=62	=62
!	!	!	!	!LO:TX:b:t=tro	!	!	!	!	!	!	!	!	!	!	!	!	!	!	!	!	!	!	!	!
2G\	.	2b-\	.	2f/	.	2dd\	.	2.ryy	2.r	.	2.ryy	2.ryy	2g\	.	2g\	.	2G\	.	(2dd\	.	(2ff\	.	2.ryy	2.ryy
4C/	.	4g\	.	4e/	.	4cc\	.	.	.	.	.	.	4c/	.	4f\	.	4C/	.	4cc\)	.	4ee\)	.	.	.
=63	=63	=63	=63	=63	=63	=63	=63	=63	=63	=63	=63	=63	=63	=63	=63	=63	=63	=63	=63	=63	=63	=63	=63	=63
!	!	!	!	!	!LO:DY:a	!	!LO:DY:a	!	!	!	!	!	!LO:TX:a:t=4	!	!LO:TX:a:t=4	!	!	!	!LO:TX:a:t=4.	!	!LO:TX:a:t=4.	!	!	!
4C/	p	2g\	.	2f/	p	4cc\	p	2.ryy	4c\	Cna	2.ryy	2.ryy	0.r	.	0.r	.	4C/	.	0.r	.	0.r	.	2.ryy	2.ryy
4r	.	.	.	.	.	4g/	.	.	4G/	Mat-	.	.	.	.	.	.	4r	.	.	.	.	.	.	.
!	!	!	!LO:DY:t=p&colon;	!	!	!	!	!	!	!	!	!	!	!	!	!	!	!	!	!	!	!	!	!
4C/	.	4g\	p	4cc\	.	4ee\	.	.	4e\	-ko	.	.	.	.	.	.	4C/	.	.	.	.	.	.	.
=64	=64	=64	=64	=64	=64	=64	=64	=64	=64	=64	=64	=64	=64	=64	=64	=64	=64	=64	=64	=64	=64	=64	=64	=64
4G\	.	2g\	.	4.bn\	.	4.dd\	.	2.ryy	4.d\	zrzo-	2.ryy	2.ryy	.	.	.	.	4G\	.	.	.	.	.	2.ryy	2.ryy
4GG/	.	.	.	.	.	.	.	.	.	.	.	.	.	.	.	.	4GG/	.	.	.	.	.	.	.
.	.	.	.	16cc\LL	.	(16ee\LL	.	.	16e\LL	.	.	.	.	.	.	.	.	.	.	.	.	.	.	.
.	.	.	.	16dd\JJ	.	16ff\JJ)	.	.	16f\JJ	.	.	.	.	.	.	.	.	.	.	.	.	.	.	.
4C/	.	4g\	.	4cc\	.	4ee\	.	.	4e\	-dło	.	.	.	.	.	.	4C/	.	.	.	.	.	.	.
!	!	!	!	!	!	!	!	!	!	!	!	!	!	!	!	!	!LO:LB:g=original	!	!	!	!	!	!	!
=65	=65	=65	=65	=65	=65	=65	=65	=65	=65	=65	=65	=65	=65	=65	=65	=65	=65	=65	=65	=65	=65	=65	=65	=65
4F\	.	4a\	.	(8f/L	.	(8dd\L	.	2.ryy	8d\L	mi-	2.ryy	2.ryy	.	.	.	.	4F\	.	.	.	.	.	2.ryy	2.ryy
.	.	.	.	8a/	.	8ff\J)	.	.	(8f\J	.	.	.	.	.	.	.	.	.	.	.	.	.	.	.
4G\	.	4g\	.	8g/	.	(16ff\LL	.	.	16f\LL)	.	.	.	.	.	.	.	4G\	.	.	.	.	.	.	.
.	.	.	.	.	.	16ee\)	.	.	16e\JJ	.	.	.	.	.	.	.	.	.	.	.	.	.	.	.
.	.	.	.	8f/	.	(16ee\	.	.	(16e\LL	.	.	.	.	.	.	.	.	.	.	.	.	.	.	.
.	.	.	.	.	.	16dd\JJ)	.	.	16d\JJ)	.	.	.	.	.	.	.	.	.	.	.	.	.	.	.
4GG/	.	4g\	.	8e/	.	(16dd\LL	.	.	16d\LL	-ło-	.	.	.	.	.	.	4GG/	.	.	.	.	.	.	.
.	.	.	.	.	.	16cc\)	.	.	16c\	.	.	.	.	.	.	.	.	.	.	.	.	.	.	.
.	.	.	.	8d/J)	.	(16cc\	.	.	16c\	.	.	.	.	.	.	.	.	.	.	.	.	.	.	.
.	.	.	.	.	.	16bn\JJ)	.	.	16Bn\JJ	.	.	.	.	.	.	.	.	.	.	.	.	.	.	.
=66	=66	=66	=66	=66	=66	=66	=66	=66	=66	=66	=66	=66	=66	=66	=66	=66	=66	=66	=66	=66	=66	=66	=66	=66
!	!LO:DY:t=fr	!	!	!	!	!	!	!	!	!	!	!	!	!	!	!	!	!	!	!	!	!	!	!
8C/L	f	4g\	.	4e/	.	4cc\	.	2.ryy	4c\	-sci	2.ryy	2.ryy	.	.	.	.	(8C/L	.	.	.	.	.	2.ryy	2.ryy
8D/	.	.	.	.	.	.	.	.	.	.	.	.	.	.	.	.	8D/	.	.	.	.	.	.	.
8C/	.	4r	.	4r	.	4r	.	.	4r	.	.	.	.	.	.	.	8C/	.	.	.	.	.	.	.
8BB-/	.	.	.	.	.	.	.	.	.	.	.	.	.	.	.	.	8BB-X/	.	.	.	.	.	.	.
8AA/	.	4r	.	4r	.	4r	.	.	4r	.	.	.	.	.	.	.	8AA/	.	.	.	.	.	.	.
8GG/J	.	.	.	.	.	.	.	.	.	.	.	.	.	.	.	.	8GG/J)	.	.	.	.	.	.	.
!LO:LB:g=original	!	!	!	!	!	!LO:LB:g=original	!	!	!	!	!	!	!	!	!	!	!	!	!	!	!	!	!	!
=67	=67	=67	=67	=67	=67	=67	=67	=67	=67	=67	=67	=67	=67	=67	=67	=67	=67	=67	=67	=67	=67	=67	=67	=67
!	!	!	!	!	!	!	!	!	!	!	!	!	!	!	!	!	!	!	!	!LO:DY:t=p&colon;	!	!LO:DY:t=p&colon;	!	!
4FF/	.	2cc\	.	(16a/LL	.	16cc\LL	.	2.ryy	16c\LL	Cna	2.ryy	2.ryy	4f\	p	4a\	p	4FF/	.	2a/	p	2cc\	p	2.ryy	2.ryy
.	.	.	.	16g/	.	16b-X\	.	.	16B-X\	.	.	.	.	.	.	.	.	.	.	.	.	.	.	.
.	.	.	.	16f/	.	16a\	.	.	16A\	.	.	.	.	.	.	.	.	.	.	.	.	.	.	.
.	.	.	.	16g/JJ)	.	16b-\JJ	.	.	16B-\JJ	.	.	.	.	.	.	.	.	.	.	.	.	.	.	.
!	!	!	!	!	!	!	!	!	!LO:LB:g=original	!	!	!	!	!	!	!	!	!	!	!	!	!	!	!
4r	.	.	.	4a/	.	4cc\	.	.	4c\	Ma-	.	.	4r	.	4r	.	4r	.	.	.	.	.	.	.
4F\	.	4cc\	.	4A/	.	4f/	.	.	4F/	-tko	.	.	4A/	.	4f\	.	4F\	.	4f/	.	4f/	.	.	.
=68	=68	=68	=68	=68	=68	=68	=68	=68	=68	=68	=68	=68	=68	=68	=68	=68	=68	=68	=68	=68	=68	=68	=68	=68
2C/	.	2cc\	.	4.e/	.	4.g/	.	2.ryy	4.G/	Mi-	2.ryy	2.ryy	2c/	.	2g\	.	2C/	.	4.e/	.	(4.g/	.	2.ryy	2.ryy
.	.	.	.	16f/LL	.	(16a/LL	.	.	16A/LL	-ło-	.	.	.	.	.	.	.	.	16f/LL	.	16a/LL	.	.	.
.	.	.	.	16g/JJ	.	16b-/JJ)	.	.	16B-/JJ	.	.	.	.	.	.	.	.	.	16g/JJ	.	16b-/JJ)	.	.	.
4F\	.	4cc\	.	4f/	.	4a/	.	.	4A\	-sci	.	.	4f\	.	4a\	.	4F\	.	4f/	.	4a/	.	.	.
=69	=69	=69	=69	=69	=69	=69	=69	=69	=69	=69	=69	=69	=69	=69	=69	=69	=69	=69	=69	=69	=69	=69	=69	=69
4F'\	.	(8ff\L	.	(8f/L	.	(8a/L	.	2.ryy	8A\L	niech	2.ryy	2.ryy	4r	.	4r	.	4F\	.	(8a/L	.	(8ff\L	.	2.ryy	2.ryy
.	.	8ee\	.	8e/	.	8g/	.	.	8G\	.	.	.	.	.	.	.	.	.	8g/	.	8ee\	.	.	.
(4BB-/	.	8dd\	.	8d/	.	8b-/	.	.	8B-\	.	.	.	4r	.	4r	.	4BB-/	.	8b-/	.	8dd\	.	.	.
.	.	8cc\	.	8c/	.	8a/	.	.	8A\	.	.	.	.	.	.	.	.	.	8a/	.	8cc\	.	.	.
4BBn/)	.	8b-\	.	8B-/	.	8g/	.	.	8G\	.	.	.	4f\	.	4a\	.	4BBn/	.	8g/	.	8b-\	.	.	.
.	.	8a\J)	.	8A/J)	.	8f/J)	.	.	8F\J	.	.	.	.	.	.	.	.	.	8f/J)	.	8a\J)	.	.	.
=70	=70	=70	=70	=70	=70	=70	=70	=70	=70	=70	=70	=70	=70	=70	=70	=70	=70	=70	=70	=70	=70	=70	=70	=70
4C/	.	4a\	.	4A/	.	4f/	.	2.ryy	4F/	czu-	2.ryy	2.ryy	4f\	.	4a\	.	4C/	.	4f/	.	4a/	.	2.ryy	2.ryy
.	.	.	.	.	.	16qqe/LL	.	.	16qqE/LL	.	.	.	.	.	.	.	.	.	.	.	.	.	.	.
.	.	.	.	.	.	16qqf/JJ	.	.	16qqF/JJ	.	.	.	.	.	.	.	.	.	.	.	.	.	.	.
8c\L	.	4g\	.	4G/	.	4e/	.	.	4E/	-ię	.	.	4c/	.	4g\	.	8c\L	.	4e/	.	4g/	.	.	.
8B-\	.	.	.	.	.	.	.	.	.	.	.	.	.	.	.	.	8B-\	.	.	.	.	.	.	.
8A\	.	4r	.	4r	.	4r	.	.	4r	.	.	.	4r	.	4r	.	8A\	.	4r	.	4r	.	.	.
8G\J	.	.	.	.	.	.	.	.	.	.	.	.	.	.	.	.	8G\J	.	.	.	.	.	.	.
!	!	!	!	!LO:LB:g=original	!	!	!	!	!	!	!	!	!	!	!	!	!	!	!LO:LB:g=original	!	!	!	!	!
=71	=71	=71	=71	=71	=71	=71	=71	=71	=71	=71	=71	=71	=71	=71	=71	=71	=71	=71	=71	=71	=71	=71	=71	=71
4F\	.	4cc\	.	4r	.	4f/	.	2.ryy	4r	.	2.ryy	2.ryy	4F/	.	4f\	.	4F\	.	4r	.	4r	.	2.ryy	2.ryy
!	!	!	!	!	!	!	!	!	!	!	!	!	!	!	!	!	!	!	!	!LO:DY:t=p&colon;	!	!LO:DY:t=p&colon;	!	!
4r	.	4r	.	4a/	.	(4cc\	.	.	4c\	gwałt	.	.	4r	.	4r	.	4r	.	2cc\	p	2ee-X\	p	.	.
4F\	.	4cc\	.	4cc/	.	4ee-X\)	.	.	4e-X\	twey	.	.	4F/	.	4f\	.	4F\	.	.	.	.	.	.	.
=72	=72	=72	=72	=72	=72	=72	=72	=72	=72	=72	=72	=72	=72	=72	=72	=72	=72	=72	=72	=72	=72	=72	=72	=72
!	!	!	!	!LO:TX:t=P:problem:mixed beam	!	!	!	!	!	!	!	!	!	!	!	!	!	!	!	!	!	!	!	!
4BB-/	.	4f\	.	8b-\L	.	(8dd\L	.	2.ryy	8d\L	za-	2.ryy	2.ryy	4f\	.	4f\	.	4BB-/	.	4b-\	.	4dd\	.	2.ryy	2.ryy
.	.	.	.	(8d/	.	8b-\	.	.	8B-\	.	.	.	.	.	.	.	.	.	.	.	.	.	.	.
4r	.	4r	.	8e/	.	8cc\	.	.	8c\	.	.	.	4r	.	4r	.	4r	.	4r	.	4r	.	.	.
.	.	.	.	8f/	.	8dd\	.	.	8d\J	.	.	.	.	.	.	.	.	.	.	.	.	.	.	.
4BB-/	.	4f\	.	8g/	.	8ee-X\	.	.	8e-X\L	.	.	.	4r	.	4r	.	4BB-/	.	4r	.	4r	.	.	.
.	.	.	.	8f/J)	.	8dd\J)	.	.	8d\J	.	.	.	.	.	.	.	.	.	.	.	.	.	.	.
=73	=73	=73	=73	=73	=73	=73	=73	=73	=73	=73	=73	=73	=73	=73	=73	=73	=73	=73	=73	=73	=73	=73	=73	=73
!	!	!	!	!	!	!	!	!	!	!	!	!	!LO:TX:a:t=2	!	!LO:TX:a:t=2	!	!	!	!LO:TX:a:t=2.	!	!LO:TX:a:t=2.	!	!	!
4E-X\	.	4g\	.	8e-X/L	.	8cc\L	.	2.ryy	8c\	-ło-	2.ryy	2.ryy	1.r	.	1.r	.	4E-X\	.	1.r	.	1.r	.	2.ryy	2.ryy
.	.	.	.	(16f/L	.	16dd\L	.	.	16d\LL	.	.	.	.	.	.	.	.	.	.	.	.	.	.	.
.	.	.	.	16g/JJ)	.	16ee-X\JJ	.	.	16e-X\JJ	.	.	.	.	.	.	.	.	.	.	.	.	.	.	.
4F\	.	4f\	.	(8f/L	.	(8dd\L	.	.	8d\L	.	.	.	.	.	.	.	4F\	.	.	.	.	.	.	.
.	.	.	.	8e-/	.	8cc\	.	.	8c\	.	.	.	.	.	.	.	.	.	.	.	.	.	.	.
4FF/	.	4f\	.	8d/	.	8b-\	.	.	8B-\	.	.	.	.	.	.	.	4FF/	.	.	.	.	.	.	.
.	.	.	.	8c/J)	.	8a\J)	.	.	8A\J	.	.	.	.	.	.	.	.	.	.	.	.	.	.	.
=74	=74	=74	=74	=74	=74	=74	=74	=74	=74	=74	=74	=74	=74	=74	=74	=74	=74	=74	=74	=74	=74	=74	=74	=74
!	!	!	!	!	!LO:DY:a	!	!	!	!	!	!	!	!	!	!	!	!	!	!	!	!	!	!	!
4BB-/	.	4f\	.	8d/L	p	(8b-\L	p	2.ryy	4B-\	-sci	2.ryy	2.ryy	.	.	.	.	4BB-/	.	.	.	.	.	2.ryy	2.ryy
.	.	.	.	8f/	.	8dd\	.	.	.	.	.	.	.	.	.	.	.	.	.	.	.	.	.	.
4r	.	4r	.	8b-/	.	8ee-X\	.	.	4r	.	.	.	.	.	.	.	4r	.	.	.	.	.	.	.
.	.	.	.	8e-X/	.	8cc\	.	.	.	.	.	.	.	.	.	.	.	.	.	.	.	.	.	.
4r	.	4r	.	8c/	.	8a\	.	.	4r	.	.	.	.	.	.	.	4r	.	.	.	.	.	.	.
.	.	.	.	8d/J	.	8b-\J)	.	.	.	.	.	.	.	.	.	.	.	.	.	.	.	.	.	.
!	!	!LO:LB:g=original	!	!	!	!	!	!	!	!	!	!	!	!	!LO:LB:g=original	!	!	!	!	!	!	!	!	!
=75	=75	=75	=75	=75	=75	=75	=75	=75	=75	=75	=75	=75	=75	=75	=75	=75	=75	=75	=75	=75	=75	=75	=75	=75
!	!	!	!	!	!LO:DY:a	!	!LO:DY:a	!	!	!	!	!	!	!	!	!	!	!	!	!	!	!	!	!
4G\	.	4g\	.	4r	f	4g 4G/	f	2.ryy	4r	.	2.ryy	2.ryy	2.g\	.	2.g\	.	4G\	.	2.dd\	.	2.ff\	.	2.ryy	2.ryy
!	!	!	!	!	!	!	!LO:DY:a	!	!	!	!	!	!	!	!	!	!	!	!	!	!	!	!	!
4r	.	4r	.	4bn\	.	4dd\	p	.	4d\	niech	.	.	.	.	.	.	4r	.	.	.	.	.	.	.
4G\	.	4g\	.	4dd\	.	4ff\	.	.	4f\	czuie	.	.	.	.	.	.	4G\	.	.	.	.	.	.	.
!	!	!	!	!	!	!	!	!	!LO:LB:g=original	!	!	!	!	!	!	!	!	!	!	!	!	!	!	!
=76	=76	=76	=76	=76	=76	=76	=76	=76	=76	=76	=76	=76	=76	=76	=76	=76	=76	=76	=76	=76	=76	=76	=76	=76
!	!	!	!	!LO:TX:t=P:problem:mixed beam	!	!	!	!	!	!	!	!	!	!	!	!	!	!	!	!	!	!	!	!
4C/	.	4g\	.	8cc\L	.	8een\L	.	2.ryy	8en\L	gwałt	2.ryy	2.ryy	4c/	.	4g\	.	4C/	.	4cc\	.	4ee\	.	2.ryy	2.ryy
.	.	.	.	8en/	.	8cc\	.	.	8c\	.	.	.	.	.	.	.	.	.	.	.	.	.	.	.
4r	.	4r	.	8f/	.	8dd\	.	.	8d\	.	.	.	4r	.	4r	.	4r	.	4r	.	4r	.	.	.
.	.	.	.	8g/	.	8ee\	.	.	8e\	.	.	.	.	.	.	.	.	.	.	.	.	.	.	.
4C/	.	4g\	.	8a/	.	8ff\	.	.	8f\	.	.	.	4r	.	4r	.	4C/	.	4r	.	4r	.	.	.
.	.	.	.	8g/J	.	8dd\J	.	.	8e\J	.	.	.	.	.	.	.	.	.	.	.	.	.	.	.
!	!	!	!	!	!	!	!	!	!	!	!	!	!	!	!	!	!LO:LB:g=original	!	!	!	!	!	!	!
=77	=77	=77	=77	=77	=77	=77	=77	=77	=77	=77	=77	=77	=77	=77	=77	=77	=77	=77	=77	=77	=77	=77	=77	=77
!	!	!	!	!	!	!	!	!	!	!	!	!	!LO:TX:a:t=3	!	!LO:TX:a:t=3	!	!	!	!LO:TX:a:t=3.	!	!LO:TX:a:t=3.	!	!	!
4F\	.	4a\	.	8f/L	.	8dd\L	.	2.ryy	8d\L	twey	2.ryy	2.ryy	1.r	.	1.r	.	4F\	.	1.r	.	1.r	.	2.ryy	2.ryy
.	.	.	.	16g/L	.	16ee\L	.	.	16e\L	.	.	.	.	.	.	.	.	.	.	.	.	.	.	.
.	.	.	.	16a/JJ	.	16ff\JJ	.	.	16f\JJ	.	.	.	.	.	.	.	.	.	.	.	.	.	.	.
4G\	.	4g\	.	8g/L	.	8ee\L	.	.	8e\L	za-	.	.	.	.	.	.	4G\	.	.	.	.	.	.	.
.	.	.	.	8f/	.	8dd\	.	.	8d\	.	.	.	.	.	.	.	.	.	.	.	.	.	.	.
4GG/	.	4g\	.	8e/	.	8cc\	.	.	8c\	.	.	.	.	.	.	.	4GG/	.	.	.	.	.	.	.
!	!	!	!	!	!	!	!	!	!LO:SIC:v:s=8Bn\J	!	!	!	!	!	!	!	!	!	!	!	!	!	!	!
.	.	.	.	8d/J	.	8bn\J	.	.	8B-\J	-ło-	.	.	.	.	.	.	.	.	.	.	.	.	.	.
!	!	!	!	!	!	!LO:PB:g=original	!	!	!	!	!	!	!	!	!	!	!	!	!	!	!	!	!	!
=78	=78	=78	=78	=78	=78	=78	=78	=78	=78	=78	=78	=78	=78	=78	=78	=78	=78	=78	=78	=78	=78	=78	=78	=78
4C/	.	4g\	.	8e/L	.	(8cc\L	p	2.ryy	4c\	-ści	2.ryy	2.ryy	.	.	.	.	4C/	.	.	.	.	.	2.ryy	2.ryy
.	.	.	.	8a/	.	8ee\	.	.	.	.	.	.	.	.	.	.	.	.	.	.	.	.	.	.
4r	.	4r	.	8a/	.	8ff\	.	.	4r	.	.	.	.	.	.	.	4r	.	.	.	.	.	.	.
.	.	.	.	8f/	.	8dd\	.	.	.	.	.	.	.	.	.	.	.	.	.	.	.	.	.	.
4r	.	4r	.	8d/	.	8bn\	.	.	4r	.	.	.	.	.	.	.	4r	.	.	.	.	.	.	.
.	.	.	.	8e/J	.	8cc\J)	.	.	.	.	.	.	.	.	.	.	.	.	.	.	.	.	.	.
!LO:LB:g=original	!	!	!	!	!	!	!	!	!	!	!	!	!	!	!	!	!	!	!	!	!	!	!	!
=79	=79	=79	=79	=79	=79	=79	=79	=79	=79	=79	=79	=79	=79	=79	=79	=79	=79	=79	=79	=79	=79	=79	=79	=79
4C/	.	8r	.	8b-X\L	.	4gg\	.	2.ryy	4g\	Do-	2.ryy	2.ryy	2.r	.	2.r	.	4C\	.	2.r	.	2.r	.	2.ryy	2.ryy
.	.	8g\L	.	8b-\	.	.	.	.	.	.	.	.	.	.	.	.	.	.	.	.	.	.	.	.
4D/	.	8g\	.	8b-\	.	(16gg\LL	.	.	16g\LL	.	.	.	.	.	.	.	4D\	.	.	.	.	.	.	.
.	.	.	.	.	.	16ff\	.	.	16f\	.	.	.	.	.	.	.	.	.	.	.	.	.	.	.
.	.	8g\	.	8b-\	.	16ee\	.	.	16e\	.	.	.	.	.	.	.	.	.	.	.	.	.	.	.
.	.	.	.	.	.	16ff\JJ)	.	.	16f\JJ	.	.	.	.	.	.	.	.	.	.	.	.	.	.	.
4En\	.	8g\	.	8b-\	.	(16ee\LL	.	.	16e\LL	.	.	.	.	.	.	.	8En\L	.	.	.	.	.	.	.
.	.	.	.	.	.	16dd\	.	.	16d\	.	.	.	.	.	.	.	.	.	.	.	.	.	.	.
.	.	8e\J	.	8g\J	.	16cc\	.	.	16c\	.	.	.	.	.	.	.	8G\J	.	.	.	.	.	.	.
.	.	.	.	.	.	16b-X\JJ)	.	.	16B-X\JJ	.	.	.	.	.	.	.	.	.	.	.	.	.	.	.
!	!	!	!	!	!	!	!	!	!	!	!	!	!LO:LB:g=original	!	!	!	!	!	!	!	!LO:LB:g=original	!	!	!
=80	=80	=80	=80	=80	=80	=80	=80	=80	=80	=80	=80	=80	=80	=80	=80	=80	=80	=80	=80	=80	=80	=80	=80	=80
4F\	.	8A/L	.	8f/L	.	8a\L	.	2.ryy	8A\	.	2.ryy	2.ryy	4r	.	4r	.	(8A\L	.	4r	.	4r	.	2.ryy	2.ryy
.	.	16B-/L	.	16g/L	.	16b-\L	.	.	16B-\LL	.	.	.	.	.	.	.	16B-\L	.	.	.	.	.	.	.
.	.	16c/JJ	.	16a/JJ	.	16cc\JJ	.	.	16c\JJ	.	.	.	.	.	.	.	16c\JJ	.	.	.	.	.	.	.
4r	.	8d/L	.	8b-X/L	.	(8dd\L	.	.	8d\L	.	.	.	4r	.	4r	.	8d\L	.	4r	.	4r	.	.	.
.	.	8c/	.	8a/	.	8cc\	.	.	8c\J	.	.	.	.	.	.	.	8c\	.	.	.	.	.	.	.
4F\	.	8B-X/	.	8g/	.	8b-\	.	.	8B-\L	.	.	.	8c\L	.	8g\L	.	8B-\	.	8b-/L	.	8ee\L	.	.	.
.	.	8A/J	.	8f/J	.	8a\J)	.	.	8A\J	.	.	.	8f\J	.	8a\J	.	8A\J)	.	8a/J	.	8ff\J	.	.	.
=81	=81	=81	=81	=81	=81	=81	=81	=81	=81	=81	=81	=81	=81	=81	=81	=81	=81	=81	=81	=81	=81	=81	=81	=81
!	!LO:DY:t=f&colon;	!	!	!	!	!	!	!	!	!	!	!	!	!	!	!	!	!	!	!	!	!	!	!
4C/	f	4A/	.	4f/	.	4a/	.	2.ryy	4A\	-zwol	2.ryy	2.ryy	4f\	.	4a\	.	4c\	.	4f/	.	4a/	.	2.ryy	2.ryy
4c\	.	4G/	.	4e/	.	4g/	.	.	4G\	mi	.	.	4c/	.	4g\	.	8r	.	4e/	.	4g/	.	.	.
!	!	!	!	!	!	!	!	!	!	!	!	!	!	!	!	!	!	!LO:DY:t=f&colon;	!	!	!	!	!	!
.	.	.	.	.	.	.	.	.	.	.	.	.	.	.	.	.	8C/L	f	.	.	.	.	.	.
8G\L	.	4r	.	4r	.	4r	.	.	4r	.	.	.	4r	.	4r	.	8E/	.	4r	.	4r	.	.	.
8E\J	.	.	.	.	.	.	.	.	.	.	.	.	.	.	.	.	8G/J	.	.	.	.	.	.	.
!	!	!	!	!LO:LB:g=original	!	!	!	!	!	!	!	!	!	!	!	!	!	!	!	!	!	!	!	!
=82	=82	=82	=82	=82	=82	=82	=82	=82	=82	=82	=82	=82	=82	=82	=82	=82	=82	=82	=82	=82	=82	=82	=82	=82
*tremolo	*	*tremolo	*	*tremolo	*	*tremolo	*	*	*	*	*	*	*	*	*	*	*tremolo	*	*	*	*	*	*	*
!	!	!	!	!	!LO:DY:a	!	!	!	!	!	!	!	!LO:TX:a:t=10	!	!LO:TX:a:t=10	!	!	!LO:DY:t=p&colon;	!LO:TX:a:t=6.	!	!LO:TX:a:t=6.	!	!	!
8C/L	p	8e\L	.	8g/L	p	8b-\L	p	2.ryy	16B-\LL	z_So-	2.ryy	2.ryy	0.r	.	0.r	.	8c\L	p	0.r	.	0.r	.	2.ryy	2.ryy
.	.	.	.	.	.	.	.	.	16A\	.	.	.	.	.	.	.	.	.	.	.	.	.	.	.
8C/	.	8e\	.	8g/	.	8b-\	.	.	16B-\	.	.	.	.	.	.	.	8c\	.	.	.	.	.	.	.
.	.	.	.	.	.	.	.	.	16c\JJ	.	.	.	.	.	.	.	.	.	.	.	.	.	.	.
8C/	.	8e\	.	8g/	.	8b-\	.	.	4B-\	-bą	.	.	.	.	.	.	8c\	.	.	.	.	.	.	.
8C/	.	8e\	.	8g/	.	8b-\	.	.	.	.	.	.	.	.	.	.	8c\	.	.	.	.	.	.	.
8C/	.	8e\	.	8g/	.	8b-\	.	.	8r	.	.	.	.	.	.	.	8c\	.	.	.	.	.	.	.
8C/J	.	8e\J	.	8g/J	.	8b-\J	.	.	16e\LL	z_So-	.	.	.	.	.	.	8c\J	.	.	.	.	.	.	.
.	.	.	.	.	.	.	.	.	16f\JJ	.	.	.	.	.	.	.	.	.	.	.	.	.	.	.
!	!	!	!	!	!	!	!	!	!LO:LB:g=original	!	!	!	!	!	!	!	!	!	!	!	!	!	!	!
=83	=83	=83	=83	=83	=83	=83	=83	=83	=83	=83	=83	=83	=83	=83	=83	=83	=83	=83	=83	=83	=83	=83	=83	=83
8C/L	.	8e\L	.	8g/L	.	8b-\L	.	2.ryy	16g\LL	.	2.ryy	2.ryy	.	.	.	.	8C/L	.	.	.	.	.	2.ryy	2.ryy
.	.	.	.	.	.	.	.	.	16f\	.	.	.	.	.	.	.	.	.	.	.	.	.	.	.
8C/	.	8e\	.	8g/	.	8b-\	.	.	16e\	.	.	.	.	.	.	.	8C/	.	.	.	.	.	.	.
.	.	.	.	.	.	.	.	.	16f\JJ	.	.	.	.	.	.	.	.	.	.	.	.	.	.	.
8C/	.	8e\	.	8g/	.	8b-\	.	.	16e\LL	.	.	.	.	.	.	.	8C/	.	.	.	.	.	.	.
.	.	.	.	.	.	.	.	.	16d\	.	.	.	.	.	.	.	.	.	.	.	.	.	.	.
8C/	.	8e\	.	8g/	.	8b-\	.	.	16c\	.	.	.	.	.	.	.	8C/	.	.	.	.	.	.	.
.	.	.	.	.	.	.	.	.	16d\JJ	.	.	.	.	.	.	.	.	.	.	.	.	.	.	.
8C/	.	8e\	.	8g/	.	8b-\	.	.	16c\LL	.	.	.	.	.	.	.	8C/	.	.	.	.	.	.	.
.	.	.	.	.	.	.	.	.	16B-\	.	.	.	.	.	.	.	.	.	.	.	.	.	.	.
8C/J	.	8e\J	.	8g/J	.	8b-\J	.	.	16A\	.	.	.	.	.	.	.	8C/J	.	.	.	.	.	.	.
.	.	.	.	.	.	.	.	.	16G\JJ	.	.	.	.	.	.	.	.	.	.	.	.	.	.	.
=84	=84	=84	=84	=84	=84	=84	=84	=84	=84	=84	=84	=84	=84	=84	=84	=84	=84	=84	=84	=84	=84	=84	=84	=84
8C/L	.	8cc\L	.	8f/L	.	8a/L	.	2.ryy	16A\LL	.	2.ryy	2.ryy	.	.	.	.	8c\L	.	.	.	.	.	2.ryy	2.ryy
.	.	.	.	.	.	.	.	.	16B-\	.	.	.	.	.	.	.	.	.	.	.	.	.	.	.
8C/	.	8cc\	.	8f/	.	8a/	.	.	16c\	.	.	.	.	.	.	.	8c\	.	.	.	.	.	.	.
.	.	.	.	.	.	.	.	.	16d\JJ	.	.	.	.	.	.	.	.	.	.	.	.	.	.	.
8C/	.	8cc\	.	8f/	.	8a/	.	.	4c\	-bą	.	.	.	.	.	.	8c\	.	.	.	.	.	.	.
8C/	.	8cc\	.	8f/	.	8a/	.	.	.	.	.	.	.	.	.	.	8c\	.	.	.	.	.	.	.
8C/	.	8cc\	.	8f/	.	8a/	.	.	8r	.	.	.	.	.	.	.	8c\	.	.	.	.	.	.	.
8C/J	.	8cc\J	.	8f/J	.	8a/J	.	.	16f\LL	Do-	.	.	.	.	.	.	8c\J	.	.	.	.	.	.	.
.	.	.	.	.	.	.	.	.	16g\JJ	.	.	.	.	.	.	.	.	.	.	.	.	.	.	.
=85	=85	=85	=85	=85	=85	=85	=85	=85	=85	=85	=85	=85	=85	=85	=85	=85	=85	=85	=85	=85	=85	=85	=85	=85
8C/L	.	8cc\L	.	8f/L	.	8a/L	.	2.ryy	16a\LL	.	2.ryy	2.ryy	.	.	.	.	8C/L	.	.	.	.	.	2.ryy	2.ryy
.	.	.	.	.	.	.	.	.	16g\	.	.	.	.	.	.	.	.	.	.	.	.	.	.	.
8C/	.	8cc\	.	8f/	.	8a/	.	.	16f\	.	.	.	.	.	.	.	8C/	.	.	.	.	.	.	.
.	.	.	.	.	.	.	.	.	16e\JJ	.	.	.	.	.	.	.	.	.	.	.	.	.	.	.
8C/	.	8cc\	.	8f/	.	8a/	.	.	16f\LL	.	.	.	.	.	.	.	8C/	.	.	.	.	.	.	.
.	.	.	.	.	.	.	.	.	16e\	.	.	.	.	.	.	.	.	.	.	.	.	.	.	.
8C/	.	8cc\	.	8f/	.	8a/	.	.	16d\	.	.	.	.	.	.	.	8C/	.	.	.	.	.	.	.
.	.	.	.	.	.	.	.	.	16c\JJ	.	.	.	.	.	.	.	.	.	.	.	.	.	.	.
8C/	.	8cc\	.	8f/	.	8a/	.	.	16d\LL	.	.	.	.	.	.	.	8C/	.	.	.	.	.	.	.
.	.	.	.	.	.	.	.	.	16c\	.	.	.	.	.	.	.	.	.	.	.	.	.	.	.
8C/J	.	8cc\J	.	8f/J	.	8a/J	.	.	16B-\	.	.	.	.	.	.	.	8C/J	.	.	.	.	.	.	.
.	.	.	.	.	.	.	.	.	16A\JJ	.	.	.	.	.	.	.	.	.	.	.	.	.	.	.
=86	=86	=86	=86	=86	=86	=86	=86	=86	=86	=86	=86	=86	=86	=86	=86	=86	=86	=86	=86	=86	=86	=86	=86	=86
8C/L	.	8b-\L	.	8e/L	.	8g/L	.	2.ryy	16B-\LL	.	2.ryy	2.ryy	0.r	.	0.r	.	8C/L	.	1.r	.	1.r	.	2.ryy	2.ryy
.	.	.	.	.	.	.	.	.	16A\	.	.	.	.	.	.	.	.	.	.	.	.	.	.	.
8C/	.	8b-\	.	8e/	.	8g/	.	.	16B-\	.	.	.	.	.	.	.	8C/	.	.	.	.	.	.	.
.	.	.	.	.	.	.	.	.	16c\JJ	.	.	.	.	.	.	.	.	.	.	.	.	.	.	.
8C/	.	8b-\	.	8e/	.	8g/	.	.	4B-\	-zwol	.	.	.	.	.	.	8C/	.	.	.	.	.	.	.
8C/	.	8b-\	.	8e/	.	8g/	.	.	.	.	.	.	.	.	.	.	8C/	.	.	.	.	.	.	.
8C/	.	8b-\	.	8e/	.	8g/	.	.	8r	.	.	.	.	.	.	.	8C/	.	.	.	.	.	.	.
8C/J	.	8b-\J	.	8e/J	.	8g/J	.	.	16e\LL	z_So-	.	.	.	.	.	.	8C/J	.	.	.	.	.	.	.
.	.	.	.	.	.	.	.	.	16g\JJ	.	.	.	.	.	.	.	.	.	.	.	.	.	.	.
=87	=87	=87	=87	=87	=87	=87	=87	=87	=87	=87	=87	=87	=87	=87	=87	=87	=87	=87	=87	=87	=87	=87	=87	=87
8C/L	.	8b-\L	.	8e/L	.	8g/L	.	2.ryy	(16b-\LL	.	2.ryy	2.ryy	.	.	.	.	8C/L	.	.	.	.	.	2.ryy	2.ryy
.	.	.	.	.	.	.	.	.	16a\	.	.	.	.	.	.	.	.	.	.	.	.	.	.	.
8C/	.	8b-\	.	8e/	.	8g/	.	.	16g\	.	.	.	.	.	.	.	8C/	.	.	.	.	.	.	.
.	.	.	.	.	.	.	.	.	16a\JJ)	.	.	.	.	.	.	.	.	.	.	.	.	.	.	.
8C/	.	8b-\	.	8e/	.	8g/	.	.	16g\LL	.	.	.	.	.	.	.	8C/	.	.	.	.	.	.	.
.	.	.	.	.	.	.	.	.	16f\	.	.	.	.	.	.	.	.	.	.	.	.	.	.	.
8C/	.	8b-\	.	8e/	.	8g/	.	.	16e\	.	.	.	.	.	.	.	8C/	.	.	.	.	.	.	.
.	.	.	.	.	.	.	.	.	16f\JJ	.	.	.	.	.	.	.	.	.	.	.	.	.	.	.
8C/	.	8b-\	.	8e/	.	8g/	.	.	16e\LL	.	.	.	.	.	.	.	8C/	.	.	.	.	.	.	.
.	.	.	.	.	.	.	.	.	16d\	.	.	.	.	.	.	.	.	.	.	.	.	.	.	.
8C/J	.	8b-\J	.	8e/J	.	8g/J	.	.	16c\	.	.	.	.	.	.	.	8C/J	.	.	.	.	.	.	.
.	.	.	.	.	.	.	.	.	16B-\JJ	.	.	.	.	.	.	.	.	.	.	.	.	.	.	.
*Xtremolo	*	*Xtremolo	*	*Xtremolo	*	*Xtremolo	*	*	*	*	*	*	*	*	*	*	*Xtremolo	*	*	*	*	*	*	*
!	!	!	!	!	!	!	!	!	!LO:LB:g=original	!	!	!	!	!	!	!	!	!	!	!	!	!	!	!
=88	=88	=88	=88	=88	=88	=88	=88	=88	=88	=88	=88	=88	=88	=88	=88	=88	=88	=88	=88	=88	=88	=88	=88	=88
!	!	!LO:TX:t=P:problem:mixed beam	!	!	!	!	!	!	!	!	!	!	!	!	!	!	!	!	!	!	!	!	!	!
4F\	.	8a\L	.	8f/L	.	8a/	.	2.ryy	8A\	.	2.ryy	2.ryy	.	.	.	.	4F\	.	4r	.	4r	.	2.ryy	2.ryy
.	.	16A/L	.	16f/L	.	4cc\	.	.	4c\	.	.	.	.	.	.	.	.	.	.	.	.	.	.	.
.	.	16B-/JJ	.	16g/JJ	.	.	.	.	.	.	.	.	.	.	.	.	.	.	.	.	.	.	.	.
8r	.	(8c'/L	.	8a/L	.	.	.	.	.	.	.	.	.	.	.	.	8r	.	4r	.	4r	.	.	.
8F\L	.	8A'/	.	8c/J	.	8e-X/	.	.	8E-X/	.	.	.	.	.	.	.	8A\L	.	.	.	.	.	.	.
.	.	.	.	.	.	16qqf/	.	.	8qqF/	.	.	.	.	.	.	.	.	.	.	.	.	.	.	.
!	!	!	!	!	!	!	!	!	!	!	!	!	!	!	!	!	!	!	!	!LO:DY:t=p&colon;	!	!LO:DY:t=p&colon;	!	!
8G\	.	8B-'/	.	8c/L	.	(8e-/L	.	.	8E-/L	.	.	.	.	.	.	.	8G\	.	4cc\	p	4ee-X\	p	.	.
8A\J	.	8c'/J)	.	16B-/L	.	16d/L	.	.	16D/L	.	.	.	.	.	.	.	8F\J	.	.	.	.	.	.	.
.	.	.	.	16c/JJ	.	16e-/JJ)	.	.	16E-/JJ	.	.	.	.	.	.	.	.	.	.	.	.	.	.	.
!	!	!LO:LB:g=original	!	!	!	!LO:LB:g=original	!	!	!	!	!	!	!	!	!	!	!	!	!	!	!	!	!	!
=89	=89	=89	=89	=89	=89	=89	=89	=89	=89	=89	=89	=89	=89	=89	=89	=89	=89	=89	=89	=89	=89	=89	=89	=89
!	!	!LO:TX:t=P:problem:mixed beam	!	!	!	!	!	!	!	!	!	!	!	!	!	!	!	!	!	!	!	!	!	!
4B-\	.	8d\L	.	8B-/L	.	8d/	.	2.ryy	8D/	.	2.ryy	2.ryy	.	.	.	.	4B-\	.	4b-\	.	4dd\	.	2.ryy	2.ryy
.	.	16G/L	.	16bn/L	.	4dd\	.	.	4d\	.	.	.	.	.	.	.	.	.	.	.	.	.	.	.
.	.	16A/JJ	.	16cc/JJ	.	.	.	.	.	.	.	.	.	.	.	.	.	.	.	.	.	.	.	.
!	!	!	!	!LO:TX:t=P:problem:mixed beam	!	!	!	!	!	!	!	!	!	!	!	!	!	!	!	!	!	!	!	!
8r	.	(8Bn|/L	.	8dd\L	.	.	.	.	.	.	.	.	.	.	.	.	8r	.	4r	.	4r	.	.	.
8G\L	.	8B'/	.	8d/J	.	8e/	.	.	8F/	.	.	.	.	.	.	.	8Bn\L	.	.	.	.	.	.	.
.	.	.	.	.	.	16qqg/	.	.	.	.	.	.	.	.	.	.	.	.	.	.	.	.	.	.
8A\	.	8c'/	.	8d/L	.	8f/L	.	.	8F/L	.	.	.	.	.	.	.	8A\	.	4dd\	.	4ff\	.	.	.
8Bn\J	.	8d'/J)	.	(16c/L	.	16en/L	.	.	16En/L	.	.	.	.	.	.	.	8G\J	.	.	.	.	.	.	.
.	.	.	.	16d/JJ)	.	16f/JJ	.	.	16F/JJ	.	.	.	.	.	.	.	.	.	.	.	.	.	.	.
!LO:LB:g=original	!	!	!	!	!	!	!	!	!	!	!	!	!	!	!	!	!LO:LB:g=original	!	!	!	!	!	!	!
=90	=90	=90	=90	=90	=90	=90	=90	=90	=90	=90	=90	=90	=90	=90	=90	=90	=90	=90	=90	=90	=90	=90	=90	=90
!	!	!	!	!LO:TX:t=P:problem:mixed beam	!	!	!	!	!	!	!	!	!	!	!	!	!	!	!	!	!	!	!	!
4c\	.	(8e\L	.	8c/L	.	8e/	.	2.ryy	8E/	.	2.ryy	2.ryy	1.r	.	1.r	.	4c\	.	4cc\	.	4een\	.	2.ryy	2.ryy
.	.	16c\L	.	16ee\L	.	4gg\	.	.	4g\	.	.	.	.	.	.	.	.	.	.	.	.	.	.	.
.	.	16d\JJ)	.	16ff\JJ	.	.	.	.	.	.	.	.	.	.	.	.	.	.	.	.	.	.	.	.
!	!	!	!	!LO:TX:t=P:problem:mixed beam	!	!	!	!	!	!	!	!	!	!	!	!	!	!	!	!	!	!	!	!
8r	.	(8e\L|	.	8gg\L	.	.	.	.	.	.	.	.	.	.	.	.	8r	.	4r	.	4r	.	.	.
8C/L	.	8e'\	.	8g/J	.	8b-\	.	.	8B-\	.	.	.	.	.	.	.	8E\L	.	.	.	.	.	.	.
.	.	.	.	.	.	16qqcc/	.	.	16qqc/	.	.	.	.	.	.	.	.	.	.	.	.	.	.	.
8D/	.	8f'\	.	8g/L	.	8b-\L	.	.	8B-\L	.	.	.	.	.	.	.	8D\	.	4gg\	.	4bb-\	.	.	.
8E/J	.	8g'\J)	.	16f/L	.	16a\L	.	.	16A\L	.	.	.	.	.	.	.	8C\J	.	.	.	.	.	.	.
.	.	.	.	16g/JJ	.	16b-\JJ	.	.	16B-\JJ	.	.	.	.	.	.	.	.	.	.	.	.	.	.	.
=91	=91	=91	=91	=91	=91	=91	=91	=91	=91	=91	=91	=91	=91	=91	=91	=91	=91	=91	=91	=91	=91	=91	=91	=91
4F\	.	4a\	.	4f/	.	(16a\LL	.	2.ryy	16A\LL	.	2.ryy	2.ryy	.	.	.	.	4F\	.	4ff\	.	4aa\	.	2.ryy	2.ryy
.	.	.	.	.	.	16cc\	.	.	16c\	.	.	.	.	.	.	.	.	.	.	.	.	.	.	.
.	.	.	.	.	.	16b-\	.	.	16B-\	.	.	.	.	.	.	.	.	.	.	.	.	.	.	.
.	.	.	.	.	.	16a\JJ)	.	.	16A\JJ	.	.	.	.	.	.	.	.	.	.	.	.	.	.	.
4G\	.	4b-\	.	4r	.	(16b-\LL	.	.	16B-\LL	.	.	.	.	.	.	.	4G\	.	4r	.	4r	.	.	.
.	.	.	.	.	.	16cc\	.	.	16c\	.	.	.	.	.	.	.	.	.	.	.	.	.	.	.
.	.	.	.	.	.	16dd\	.	.	16d\	.	.	.	.	.	.	.	.	.	.	.	.	.	.	.
.	.	.	.	.	.	16ee\JJ)	.	.	16e\JJ	.	.	.	.	.	.	.	.	.	.	.	.	.	.	.
4A\	.	4cc\	.	16dd\LL	.	(16ff\LL	.	.	16f\LL	.	.	.	.	.	.	.	4A\	.	4r	.	4r	.	.	.
.	.	.	.	16cc\	.	16ee\	.	.	16e\	.	.	.	.	.	.	.	.	.	.	.	.	.	.	.
.	.	.	.	16b-\	.	16dd\	.	.	16d\	.	.	.	.	.	.	.	.	.	.	.	.	.	.	.
.	.	.	.	16a\JJ	.	16cc\JJ)	.	.	16c\JJ	.	.	.	.	.	.	.	.	.	.	.	.	.	.	.
=92	=92	=92	=92	=92	=92	=92	=92	=92	=92	=92	=92	=92	=92	=92	=92	=92	=92	=92	=92	=92	=92	=92	=92	=92
4B-\	.	4dd\	.	(8b-/L	.	8dd\L	.	2.ryy	8d\L	.	2.ryy	2.ryy	4r	.	4r	.	4B-\	.	4r	.	4r	.	2.ryy	2.ryy
.	.	.	.	16a/L	.	16cc\L	.	.	16c\L	.	.	.	.	.	.	.	.	.	.	.	.	.	.	.
.	.	.	.	16g/JJ)	.	16b-\JJ	.	.	16B-\JJ	.	.	.	.	.	.	.	.	.	.	.	.	.	.	.
4c\	.	4cc\	.	4f/	.	4a/	.	.	4A\	.	.	.	4f\	.	4a\	.	4c\	.	4ff\	.	4aa\	.	.	.
4C/	.	4cc\	.	4e/	.	4g/	.	.	4G\	-bą	.	.	4c/	.	4g\	.	4C/	.	4ee\	.	4gg\	.	.	.
!	!	!	!	!	!	!	!	!	!	!	!	!	!	!	!	!	!	!	!LO:LB:g=original	!	!	!	!	!
=93	=93	=93	=93	=93	=93	=93	=93	=93	=93	=93	=93	=93	=93	=93	=93	=93	=93	=93	=93	=93	=93	=93	=93	=93
!	!	!	!	!	!	!LO:TX:t=P:problem:mixed beam	!	!	!	!	!	!	!	!	!	!	!	!	!	!	!	!	!	!
4F\	.	4cc\	.	8f/L	.	8f/L	.	2.ryy	8F/	pła-	2.ryy	2.ryy	4A/	.	4f\	.	4F\	.	4cc\	.	4ff\	.	2.ryy	2.ryy
.	.	.	.	8a/	.	(8ff\	.	.	8f\L	.	.	.	.	.	.	.	.	.	.	.	.	.	.	.
4r	.	4r	.	8cc/	.	8aa\	.	.	8a\	.	.	.	4r	.	4r	.	4r	.	4r	.	4r	.	.	.
.	.	.	.	8a/	.	8ff\	.	.	8f\	.	.	.	.	.	.	.	.	.	.	.	.	.	.	.
4F\	.	4cc\	.	8cc/	.	8aa\	.	.	8a\	.	.	.	4r	.	4r	.	4F\	.	4r	.	4r	.	.	.
.	.	.	.	8a/J	.	8ff\J)	.	.	8f\J	.	.	.	.	.	.	.	.	.	.	.	.	.	.	.
!	!	!	!	!LO:LB:g=original	!	!	!	!	!LO:LB:g=original	!	!	!	!	!	!	!	!	!	!	!	!	!	!	!
=94	=94	=94	=94	=94	=94	=94	=94	=94	=94	=94	=94	=94	=94	=94	=94	=94	=94	=94	=94	=94	=94	=94	=94	=94
!	!	!	!	!	!	!	!	!	!	!	!	!	!LO:TX:a:t=5	!	!LO:TX:a:t=5	!	!	!	!LO:TX:a:t=5.	!	!LO:TX:a:t=5.	!	!	!
4BB-/	.	4f\	.	4b-\	.	(8cc#X\L	.	2.ryy	8c#X\L	.	2.ryy	2.ryy	0.r	.	0.r	.	4BB-/	.	0.r	.	0.r	.	2.ryy	2.ryy
.	.	.	.	.	.	8dd\	.	.	8d\	.	.	.	.	.	.	.	.	.	.	.	.	.	.	.
4r	.	4r	.	(8dd\L	.	8ff\	.	.	8f\	.	.	.	.	.	.	.	4r	.	.	.	.	.	.	.
.	.	.	.	8b-\	.	8dd\	.	.	8d\	.	.	.	.	.	.	.	.	.	.	.	.	.	.	.
4BB-/	.	4f\	.	8dd\	.	8ff\	.	.	8f\	.	.	.	.	.	.	.	4BB-/	.	.	.	.	.	.	.
.	.	.	.	8b-\J)	.	8dd\J)	.	.	8d\J	.	.	.	.	.	.	.	.	.	.	.	.	.	.	.
=95	=95	=95	=95	=95	=95	=95	=95	=95	=95	=95	=95	=95	=95	=95	=95	=95	=95	=95	=95	=95	=95	=95	=95	=95
8AA/L	.	8f\L	.	8a/L	.	8ccn\L	.	2.ryy	8cn\L	.	2.ryy	2.ryy	.	.	.	.	8AA/L	.	.	.	.	.	2.ryy	2.ryy
8BB-/J	.	8g\J	.	8g/J	.	8b-\J	.	.	8B-\J	.	.	.	.	.	.	.	8BB-/J	.	.	.	.	.	.	.
4C/	.	4f\	.	4f/	.	4a/	.	.	4A\	.	.	.	.	.	.	.	4C/	.	.	.	.	.	.	.
4CC/	.	4cc\	.	4e/	.	4g/	.	.	4G/	.	.	.	.	.	.	.	4c\	.	.	.	.	.	.	.
=96	=96	=96	=96	=96	=96	=96	=96	=96	=96	=96	=96	=96	=96	=96	=96	=96	=96	=96	=96	=96	=96	=96	=96	=96
!	!	!	!	!	!	!LO:TX:t=P:problem:mixed beam	!	!	!	!	!	!	!	!	!	!	!	!	!	!	!	!	!	!
4FF/	.	4cc\	.	4a/	.	(8f/L	.	2.ryy	8F/	.	2.ryy	2.ryy	.	.	.	.	4F\	.	.	.	.	.	2.ryy	2.ryy
.	.	.	.	.	.	8ff\	.	.	8f\L	.	.	.	.	.	.	.	.	.	.	.	.	.	.	.
4r	.	4r	.	8cc\L	.	8aa\	.	.	8a\	.	.	.	.	.	.	.	4r	.	.	.	.	.	.	.
.	.	.	.	8a\	.	8ff\	.	.	8f\J	.	.	.	.	.	.	.	.	.	.	.	.	.	.	.
4F\	.	4cc\	.	8cc\	.	8aa\	.	.	8a\L	.	.	.	.	.	.	.	4F\	.	.	.	.	.	.	.
.	.	.	.	8a\J	.	8ff\J)	.	.	8f\J	.	.	.	.	.	.	.	.	.	.	.	.	.	.	.
=97	=97	=97	=97	=97	=97	=97	=97	=97	=97	=97	=97	=97	=97	=97	=97	=97	=97	=97	=97	=97	=97	=97	=97	=97
4BB-/	.	4f\	.	4b-\	.	(8cc#X\L	.	2.ryy	8c#X\L	.	2.ryy	2.ryy	.	.	.	.	4BB-/	.	.	.	.	.	2.ryy	2.ryy
.	.	.	.	.	.	8dd\	.	.	8d\	.	.	.	.	.	.	.	.	.	.	.	.	.	.	.
4r	.	4r	.	8dd\L	.	8ff\	.	.	8f\	.	.	.	.	.	.	.	4r	.	.	.	.	.	.	.
.	.	.	.	8b-\	.	8dd\	.	.	8d\	.	.	.	.	.	.	.	.	.	.	.	.	.	.	.
4BB-/	.	4f\	.	8dd\	.	8ff\	.	.	8f\	.	.	.	.	.	.	.	4BB-/	.	.	.	.	.	.	.
.	.	.	.	8b-\J	.	8dd\J)	.	.	8d\J	.	.	.	.	.	.	.	.	.	.	.	.	.	.	.
!	!	!	!	!	!	!LO:LB:g=original	!	!	!	!	!	!	!	!	!	!	!	!	!	!	!	!	!	!
=98	=98	=98	=98	=98	=98	=98	=98	=98	=98	=98	=98	=98	=98	=98	=98	=98	=98	=98	=98	=98	=98	=98	=98	=98
8AA/L	.	8f\L	.	8a/L	.	16ccn\LL	.	2.ryy	16cn\LL	.	2.ryy	2.ryy	2.r	.	2.r	.	8AA/L	.	2.r	.	2.r	.	2.ryy	2.ryy
.	.	.	.	.	.	16ff\	.	.	16f\	.	.	.	.	.	.	.	.	.	.	.	.	.	.	.
8BB-/J	.	8g\J	.	(16b-/L	.	16dd\	.	.	16d\	.	.	.	.	.	.	.	8BB-/J	.	.	.	.	.	.	.
.	.	.	.	16g/JJ)	.	16b-\JJ	.	.	16B-\JJ	.	.	.	.	.	.	.	.	.	.	.	.	.	.	.
4C/	.	4f\	.	4f/	.	4a/	.	.	4A/	.	.	.	.	.	.	.	4C/	.	.	.	.	.	.	.
4CC/	.	4cc\	.	4e/	.	4g/	.	.	4G/	.	.	.	.	.	.	.	4CC/	.	.	.	.	.	.	.
=99	=99	=99	=99	=99	=99	=99	=99	=99	=99	=99	=99	=99	=99	=99	=99	=99	=99	=99	=99	=99	=99	=99	=99	=99
.	.	.	.	.	.	.	.	.	8qqG/	.	.	.	.	.	.	.	.	.	.	.	.	.	.	.
!	!	!	!	!	!	!LO:TX:t=P:problem:mixed beam	!	!	!	!	!	!	!	!	!	!	!	!	!	!	!	!	!	!
4FF/	.	4cc\	.	8f/L	.	8f/L	.	2.ryy	2F/	-kać	2.ryy	2.ryy	4f\	.	4a\	.	4FF/	.	4a/	.	4ff\	.	2.ryy	2.ryy
.	.	.	.	8a/	.	8ff\J	.	.	.	.	.	.	.	.	.	.	.	.	.	.	.	.	.	.
8r	.	8r	.	8g/	.	(16ff\LL	.	.	.	.	.	.	8r	.	8r	.	8r	.	8r	.	8r	.	.	.
.	.	.	.	.	.	16ee\)	.	.	.	.	.	.	.	.	.	.	.	.	.	.	.	.	.	.
!LO:TX:t=P:problem:mixed beam	!	!	!	!	!	!	!	!	!	!	!	!	!	!	!	!	!LO:TX:t=P:problem:mixed beam	!	!	!	!	!	!	!
8F\L	.	8a\L	.	8f/	.	(16ee\	.	.	.	.	.	.	8f\L	.	8a\L	.	8F\L	.	8f/L	.	8dd'\L	.	.	.
.	.	.	.	.	.	16dd\JJ)	.	.	.	.	.	.	.	.	.	.	.	.	.	.	.	.	.	.
8G\	.	8g\	.	8e/	.	(16dd\LL	.	.	4r	.	.	.	8g\	.	8g\	.	8G\	.	8e/	.	(8cc\	.	.	.
.	.	.	.	.	.	16cc\)	.	.	.	.	.	.	.	.	.	.	.	.	.	.	.	.	.	.
8GG/J	.	8g\J	.	8d/J	.	(16cc\	.	.	.	.	.	.	8g\J	.	8g\J	.	8GG/J	.	8d/J	.	8bn\J	.	.	.
.	.	.	.	.	.	16bn\JJ)	.	.	.	.	.	.	.	.	.	.	.	.	.	.	.	.	.	.
=100	=100	=100	=100	=100	=100	=100	=100	=100	=100	=100	=100	=100	=100	=100	=100	=100	=100	=100	=100	=100	=100	=100	=100	=100
!	!	!	!	!	!	!	!	!	!LO:TX:a:t=14	!	!	!	!	!	!	!	!	!	!	!	!	!	!	!
4C/	.	4g\	.	8e/L	.	8cc\L	.	2.ryy	0.r	.	2.ryy	2.ryy	4c/	.	4g\	.	4C/	.	4e/	.	4cc\)	.	2.ryy	2.ryy
.	.	.	.	8d/J	.	8b-X\J	.	.	.	.	.	.	.	.	.	.	.	.	.	.	.	.	.	.
8r	.	8r	.	(16d/LL	.	(16b-/LL	.	.	.	.	.	.	4r	.	4r	.	8r	.	8r	.	8r	.	.	.
.	.	.	.	16c/)	.	16a/)	.	.	.	.	.	.	.	.	.	.	.	.	.	.	.	.	.	.
!LO:TX:t=P:problem:mixed beam	!	!LO:LB:g=original	!	!	!	!	!	!	!	!	!	!	!	!	!	!	!LO:TX:t=P:problem:mixed beam	!	!	!	!	!	!	!
8B-\L	.	8d\L	.	(16c/	.	(16a/	.	.	.	.	.	.	.	.	.	.	8B-\L	.	8b-/L	.	(8gg'\L	.	.	.
.	.	.	.	16B-/JJ)	.	16g/JJ)	.	.	.	.	.	.	.	.	.	.	.	.	.	.	.	.	.	.
8c\	.	8c\	.	(16B-/LL	.	(16g/LL	.	.	.	.	.	.	4r	.	4r	.	8c\	.	8a/	.	8ff'\	.	.	.
.	.	.	.	16A/)	.	16f/)	.	.	.	.	.	.	.	.	.	.	.	.	.	.	.	.	.	.
8C/J	.	8c\J	.	(16A/	.	(16f/	.	.	.	.	.	.	.	.	.	.	8C/J	.	8g/J	.	8ee'\J)	.	.	.
.	.	.	.	16G/JJ)	.	16e/JJ)	.	.	.	.	.	.	.	.	.	.	.	.	.	.	.	.	.	.
!LO:LB:g=original	!	!	!	!	!	!	!	!	!	!	!	!	!	!	!	!	!	!	!	!	!	!	!	!
=101	=101	=101	=101	=101	=101	=101	=101	=101	=101	=101	=101	=101	=101	=101	=101	=101	=101	=101	=101	=101	=101	=101	=101	=101
!	!	!	!	!	!	!LO:TX:t=P:problem:mixed beam	!	!	!	!	!	!	!	!	!	!	!	!	!	!	!	!	!	!
4F\	.	4c\	.	4A/	.	(16f/LL	.	2.ryy	.	.	2.ryy	2.ryy	4f\	.	4a\	.	4F\	.	4a/	.	4ff\	.	2.ryy	2.ryy
.	.	.	.	.	.	16aa\	.	.	.	.	.	.	.	.	.	.	.	.	.	.	.	.	.	.
.	.	.	.	.	.	16gg\	.	.	.	.	.	.	.	.	.	.	.	.	.	.	.	.	.	.
.	.	.	.	.	.	16ff\JJ)	.	.	.	.	.	.	.	.	.	.	.	.	.	.	.	.	.	.
8r	.	8r	.	8r	.	(16ee\LL	.	.	.	.	.	.	8r	.	8r	.	8r	.	8r	.	8r	.	.	.
.	.	.	.	.	.	16ff\	.	.	.	.	.	.	.	.	.	.	.	.	.	.	.	.	.	.
8F\L	.	8a\L	.	(16a\LL	.	16cc\	.	.	.	.	.	.	8f\L	.	8a\L	.	8F\L	.	8cc\L	.	8ee-X'\L	.	.	.
.	.	.	.	16cc\JJ)	.	16ee-X\JJ)	.	.	.	.	.	.	.	.	.	.	.	.	.	.	.	.	.	.
8G\	.	8b-\	.	(16cc\LL	.	(16ee-\LL	.	.	.	.	.	.	8g\	.	8b-\	.	8G\	.	8b-\	.	8dd'\	.	.	.
.	.	.	.	16b-\	.	16dd\)	.	.	.	.	.	.	.	.	.	.	.	.	.	.	.	.	.	.
8A\J	.	8cc\J	.	16b-\	.	(16dd\	.	.	.	.	.	.	8a\J	.	8cc\J	.	8A\J	.	8a\J	.	8cc'\J	.	.	.
.	.	.	.	16a\JJ)	.	16cc\JJ)	.	.	.	.	.	.	.	.	.	.	.	.	.	.	.	.	.	.
!	!	!	!	!	!	!	!	!	!	!	!	!	!	!	!	!	!LO:LB:g=original	!	!	!	!LO:LB:g=original	!	!	!
=102	=102	=102	=102	=102	=102	=102	=102	=102	=102	=102	=102	=102	=102	=102	=102	=102	=102	=102	=102	=102	=102	=102	=102	=102
4B-\	.	4dd\	.	4b-\	.	(16dd\LL	.	2.ryy	.	.	2.ryy	2.ryy	4g\	.	4dd\	.	4B-\	.	4b-\	.	4dd\	.	2.ryy	2.ryy
.	.	.	.	.	.	16ee\	.	.	.	.	.	.	.	.	.	.	.	.	.	.	.	.	.	.
.	.	.	.	.	.	16ff\	.	.	.	.	.	.	.	.	.	.	.	.	.	.	.	.	.	.
.	.	.	.	.	.	16ee\JJ)	.	.	.	.	.	.	.	.	.	.	.	.	.	.	.	.	.	.
4c\	.	8r	.	16dd\LL	.	16ff\LL	.	.	.	.	.	.	4r	.	4r	.	4c\	.	8r	.	8r	.	.	.
.	.	.	.	16b-\	.	16dd\	.	.	.	.	.	.	.	.	.	.	.	.	.	.	.	.	.	.
!	!	!LO:TX:t=P:problem:mixed beam	!	!	!	!	!	!	!	!	!	!	!	!	!	!	!	!	!	!	!	!	!	!
.	.	8dd\L	.	16a\	.	16cc\	.	.	.	.	.	.	.	.	.	.	.	.	8g/L|	.	(8b-/L	.	.	.
.	.	.	.	16g\JJ	.	16b-\JJ	.	.	.	.	.	.	.	.	.	.	.	.	.	.	.	.	.	.
4C/	.	8cc\	.	8f/L	.	8a/L	.	.	.	.	.	.	8f\L	.	8a\L	.	4C/	.	(8f/	.	8a/	.	.	.
.	.	8c/J	.	8e/J	.	8g/J	p	.	.	.	.	.	8c\J	.	8g\J	.	.	.	8e/J)	.	8g/J)	.	.	.
!	!	!	!	!	!	!	!	!	!	!	!	!	!	!	!LO:LB:g=original	!	!	!	!	!	!	!	!	!
=103	=103	=103	=103	=103	=103	=103	=103	=103	=103	=103	=103	=103	=103	=103	=103	=103	=103	=103	=103	=103	=103	=103	=103	=103
*	*	*	*	*	*	*^	*	*	*	*	*	*	*	*	*	*	*	*	*	*	*	*	*	*
*	*	*	*	*	*	*cue	*	*	*	*	*	*	*	*	*	*	*	*	*	*	*	*	*	*	*
!	!	!	!LO:DY:t=p&colon;	!	!	!LO:TX:a:i:t=oboe Solo	!	!	!	!	!	!	!	!	!	!	!	!	!	!LO:TX:a:i:t=Dol&colon;	!	!LO:TX:b:i:t=Dol&colon;	!	!	!
4F\	p	4F/	p	4c/	.	4a	4A/	.	2.ryy	.	.	2.ryy	2.ryy	4F/	.	4c/	.	4A\	.	4f/	.	4a/	.	2.ryy	2.ryy
!	!	!	!	!	!	!	!	!	!	!	!	!	!	!	!	!	!	!	!	!	!LO:DY:t=p&colon;	!	!	!	!
4r	.	4G/	.	4r	.	4b-	4B-/	.	.	.	.	.	.	4r	.	4r	.	4B-\	.	4g/	p	4b-/	.	.	.
4r	.	4A/	.	4f/	.	4cc	4c/	.	.	.	.	.	.	4r	.	4r	.	4c\	.	4a/	.	4cc/	.	.	.
=104	=104	=104	=104	=104	=104	=104	=104	=104	=104	=104	=104	=104	=104	=104	=104	=104	=104	=104	=104	=104	=104	=104	=104	=104	=104
!	!	!	!	!	!	!LO:N:vis=8	!	!	!	!	!	!	!	!LO:TX:a:t=1	!	!LO:TX:a:t=1	!	!	!	!	!	!	!	!	!
4BB-/	.	(8.B-\L	.	4f/	.	8.dd/L	8.d/L	.	2.ryy	0.r	.	2.ryy	2.ryy	2.r	.	2.r	.	(8.d\L	.	8.b-\L	.	(8.dd\L	.	2.ryy	2.ryy
.	.	16c\K	.	.	.	16ee/Jk	16e/Jk	.	.	.	.	.	.	.	.	.	.	16e\Jk)	.	16cc\Jk	.	16ee\K)	.	.	.
4r	.	8d\	.	4r	.	8ff/L	8f|/L	.	.	.	.	.	.	.	.	.	.	8f|\L	.	8dd'\L	.	8ff'\	.	.	.
.	.	8d\J)	.	.	.	8ff/J	8f|/J	.	.	.	.	.	.	.	.	.	.	8f|\J	.	8dd'\J	.	8ff'\J	.	.	.
4BB-/	.	(16e\LL	.	4f/	.	16gg/LL	(16g/LL	.	.	.	.	.	.	.	.	.	.	(16g\LL	.	(16ee\LL	.	(16gg\LL	.	.	.
.	.	16d\	.	.	.	16ff/	16f/	.	.	.	.	.	.	.	.	.	.	16f\	.	16dd\	.	16ff\	.	.	.
.	.	16c\	.	.	.	16ee/	16e/	.	.	.	.	.	.	.	.	.	.	16e\	.	16cc\	.	16ee\	.	.	.
.	.	16B-\JJ)	.	.	.	16dd/JJ	16d/JJ)	.	.	.	.	.	.	.	.	.	.	16d\JJ)	.	16b-\JJ)	.	16dd\JJ)	.	.	.
!	!	!	!	!LO:LB:g=original	!	!	!	!	!	!	!	!	!	!	!	!	!	!	!	!	!	!	!	!	!
=105	=105	=105	=105	=105	=105	=105	=105	=105	=105	=105	=105	=105	=105	=105	=105	=105	=105	=105	=105	=105	=105	=105	=105	=105	=105
!	!	!	!	!	!	!LO:N:vis=8	!	!	!	!	!	!	!	!	!	!	!	!	!	!	!	!	!	!	!
4F\	.	8.A/L	.	4f/	.	8.cc/L	8.c/L	.	2.ryy	.	.	2.ryy	2.ryy	8.a\L	.	8.cc\L	.	8.c\L	.	8.a/L	.	8.cc\L	.	2.ryy	2.ryy
.	.	32F/LL	.	.	.	32a/LL	32A/LL	.	.	.	.	.	.	16f\Jk	.	16a\Jk	.	32A\LL	.	32f/LL	.	32a\LL	.	.	.
.	.	32G/JJJ	.	.	.	32b-/JJJ	32B-/JJJ	.	.	.	.	.	.	.	.	.	.	32B-\JJJ	.	32g/JJJ	.	32b-\JJJ	.	.	.
!	!	!	!	!	!LO:DY:a	!	!	!	!	!	!	!	!	!	!	!	!	!	!	!	!	!	!	!	!
8r	.	8A/	.	4r	p	8cc/	8c/	.	.	.	.	.	.	8a\	.	8cc\	.	8c\L	.	8a/	.	8cc\	.	.	.
!	!LO:DY:t=for.	!	!	!	!	!	!	!	!	!	!	!	!	!	!	!	!	!	!	!	!	!	!	!	!
8F\L	f	8r	.	.	.	8ree	8r	.	.	.	.	.	.	8r	.	8r	.	8F\	.	8r	.	8r	.	.	.
8G\	.	8r	.	8r	.	4ree	8r	.	.	.	.	.	.	4r	.	4r	.	8G\	.	8r	.	8r	.	.	.
*	*	*	*	*	*	*Xcue	*	*	*	*	*	*	*	*	*	*	*	*	*	*	*	*	*	*	*
!	!	!	!	!	!	!	!	!	!	!	!	!	!	!	!	!	!	!	!	!	!LO:DY:t=for&colon;	!	!LO:DY:t=for	!	!
8A\J	.	8d\	.	8a/	.	.	8ff\	f	.	.	.	.	.	.	.	.	.	8A\J	.	8a/	f	8ff\	f	.	.
*	*	*	*	*	*	*v	*v	*	*	*	*	*	*	*	*	*	*	*	*	*	*	*	*	*	*
!	!	!	!	!	!	!	!	!	!	!	!	!	!	!	!	!	!	!	!LO:LB:g=original	!	!	!	!	!
=106	=106	=106	=106	=106	=106	=106	=106	=106	=106	=106	=106	=106	=106	=106	=106	=106	=106	=106	=106	=106	=106	=106	=106	=106
8B-\L	.	8B-\L	.	8b-/L	.	(16ee\LL	.	2.ryy	.	.	2.ryy	2.ryy	4r	.	4r	.	4B-\	.	8b-/L	.	8dd\L	.	2.ryy	2.ryy
.	.	.	.	.	.	16dd\	.	.	.	.	.	.	.	.	.	.	.	.	.	.	.	.	.	.
8B-\	.	8b-\J	.	16a/L	.	16dd\	.	.	.	.	.	.	.	.	.	.	.	.	16a/L	.	16cc\L	.	.	.
.	.	.	.	16g/JJ	.	16cc\JJ)	.	.	.	.	.	.	.	.	.	.	.	.	16g/JJ	.	16b-\JJ	.	.	.
*	*	*tremolo	*	*	*	*	*	*	*	*	*	*	*	*	*	*	*	*	*	*	*	*	*	*
8c\	.	8cc\L	.	4f/	.	4a/	p	.	.	.	.	.	4f\	.	4a\	.	4c\	.	4f/	.	4a/	.	.	.
8c\	.	8cc\	.	.	.	.	.	.	.	.	.	.	.	.	.	.	.	.	.	.	.	.	.	.
8C/	.	8cc\	.	4e/	.	4g/	.	.	.	.	.	.	4c/	.	4g\	.	4C/	.	4e/	.	4g/	.	.	.
8C/J	.	8cc\J	.	.	.	.	.	.	.	.	.	.	.	.	.	.	.	.	.	.	.	.	.	.
*	*	*Xtremolo	*	*	*	*	*	*	*	*	*	*	*	*	*	*	*	*	*	*	*	*	*	*
=107	=107	=107	=107	=107	=107	=107	=107	=107	=107	=107	=107	=107	=107	=107	=107	=107	=107	=107	=107	=107	=107	=107	=107	=107
*	*	*	*	*	*	*^	*	*	*	*	*	*	*	*	*	*	*	*	*	*	*	*	*	*
*	*	*	*	*	*	*cue	*	*	*	*	*	*	*	*	*	*	*	*	*	*	*	*	*	*	*
!	!	!	!	!	!	!	!	!	!	!	!	!	!	!	!	!	!	!LO:TX:b:i:t=Dolce	!	!	!	!	!	!	!
4F\	p	4F/	.	4c/	.	4a/	4A/	.	2.ryy	.	.	2.ryy	2.ryy	4F/	.	4c/	.	4A\	.	4f/	.	4a/	p	2.ryy	2.ryy
!	!	!	!	!	!	!	!	!	!	!	!	!	!	!	!	!	!	!	!	!	!LO:DY:t=p&colon;	!	!	!	!
4r	.	4G/	.	4r	.	4b-/	4B-/	.	.	.	.	.	.	4r	.	4r	.	4B-\	.	4g/	p	4b-/	.	.	.
4r	.	4A/	.	4f/	.	4cc/	4c/	.	.	.	.	.	.	4r	.	4r	.	4c\	.	4a/	.	4cc/	.	.	.
=108	=108	=108	=108	=108	=108	=108	=108	=108	=108	=108	=108	=108	=108	=108	=108	=108	=108	=108	=108	=108	=108	=108	=108	=108	=108
!	!	!	!	!	!	!	!	!	!	!	!	!	!	!LO:TX:a:t=1	!	!LO:TX:a:t=1	!	!	!	!	!	!	!	!	!
4BB-/	.	(8.B-\L	.	4f/	.	8.dd/L	8.d/L	.	2.ryy	0.r	.	2.ryy	2.ryy	2.r	.	2.r	.	8.d\L	.	(8.b-\L	.	(8.dd\L	.	2.ryy	2.ryy
.	.	16c\K	.	.	.	16ee/Jk	16e/Jk	.	.	.	.	.	.	.	.	.	.	16e\Jk	.	16cc\Jk)	.	16ee\K)	.	.	.
4r	.	8d\	.	4r	.	8ff/L	8f/L	.	.	.	.	.	.	.	.	.	.	8f\L	.	8dd'\L	.	8ff'\	.	.	.
.	.	8d\J)	.	.	.	8ff/J	8f/J	.	.	.	.	.	.	.	.	.	.	8f\J	.	8dd'\J	.	8ff'\J	.	.	.
4BB-/	.	(16e\LL	.	4f/	.	16gg/LL	16g/LL	.	.	.	.	.	.	.	.	.	.	(16g\LL	.	(16ee\LL	.	(16gg\LL	.	.	.
.	.	16d\	.	.	.	16ff/	16f/	.	.	.	.	.	.	.	.	.	.	16f\	.	16dd\	.	16ff\	.	.	.
.	.	16c\	.	.	.	16ee/	16e/	.	.	.	.	.	.	.	.	.	.	16e\	.	16cc\	.	16ee\	.	.	.
.	.	16B-\JJ)	.	.	.	16dd/JJ	16d/JJ	.	.	.	.	.	.	.	.	.	.	16d\JJ)	.	16b-\JJ)	.	16dd\JJ)	.	.	.
!	!	!LO:LB:g=original	!	!	!	!	!	!	!	!	!	!	!	!LO:LB:g=original	!	!	!	!	!	!	!	!	!	!	!
=109	=109	=109	=109	=109	=109	=109	=109	=109	=109	=109	=109	=109	=109	=109	=109	=109	=109	=109	=109	=109	=109	=109	=109	=109	=109
!	!	!	!	!	!	!LO:N:vis=8	!LO:N:vis=8	!	!	!	!	!	!	!	!	!	!	!	!	!	!	!	!	!	!
4F\	.	8.A/L	.	4f/	.	8.cc/L	8.c/L	.	2.ryy	.	.	2.ryy	2.ryy	8.a\L	.	8.cc\L	.	(8.c\L	.	8.a/L	.	(8.cc\L	.	2.ryy	2.ryy
.	.	(32F/LL	.	.	.	32a/LL	32A/LL	.	.	.	.	.	.	16f\Jk	.	16a\Jk	.	32A\LL	.	(32f/LL	.	32a\LL	.	.	.
.	.	32G/JJJ)	.	.	.	32b-/JJJ	32B-/JJJ	.	.	.	.	.	.	.	.	.	.	32B-\JJJ)	.	32g/JJJ)	.	32b-\JJJ)	.	.	.
8r	f	8A/	.	4r	.	8cc/	8c/	.	.	.	.	.	.	8a\	.	8cc\	.	8c|\L	.	8a/	.	8cc\	.	.	.
8F'\L	.	8r	.	.	.	8ree	8r	.	.	.	.	.	.	8r	.	8r	.	8F|\	.	8r	.	8r	.	.	.
8G'\	.	8r	.	8r	.	4ree	8r	.	.	.	.	.	.	4r	.	4r	.	8G\|	.	8r	.	8r	.	.	.
*	*	*	*	*	*	*Xcue	*	*	*	*	*	*	*	*	*	*	*	*	*	*	*	*	*	*	*
!	!	!	!	!	!	!	!	!	!	!	!	!	!	!	!	!	!	!	!	!	!	!	!LO:DY:t=for.	!	!
8A\J	.	8f\	.	8a/	f	.	8ff\	f	.	.	.	.	.	.	.	.	.	8A|\J	.	8a/	.	8ff\	f	.	.
*	*	*	*	*	*	*v	*v	*	*	*	*	*	*	*	*	*	*	*	*	*	*	*	*	*	*
!	!	!	!	!	!	!	!	!	!	!	!	!	!	!	!	!	!LO:LB:g=original	!	!	!	!	!	!	!
=110	=110	=110	=110	=110	=110	=110	=110	=110	=110	=110	=110	=110	=110	=110	=110	=110	=110	=110	=110	=110	=110	=110	=110	=110
.	.	.	.	.	.	.	.	.	.	.	.	.	.	.	.	.	.	.	8qqcc/	.	16qqee/	.	.	.
8B-\L	.	8B-\L	.	8b-/L	.	(16ee\LL	.	2.ryy	.	.	2.ryy	2.ryy	4r	.	4r	.	4B-\	.	8b-/L	.	8dd\L	.	2.ryy	2.ryy
.	.	.	.	.	.	16dd\	.	.	.	.	.	.	.	.	.	.	.	.	.	.	.	.	.	.
8G\	.	8b-\J	.	16a/L	.	16cc\	.	.	.	.	.	.	.	.	.	.	.	.	16a/L	.	16cc\L	.	.	.
.	.	.	.	16g/JJ	.	16b-\JJ)	.	.	.	.	.	.	.	.	.	.	.	.	16g/JJ	.	16b-\JJ	.	.	.
*	*	*tremolo	*	*	*	*	*	*	*	*	*	*	*	*	*	*	*	*	*	*	*	*	*	*
8c\	.	8cc\L	.	4f/	.	4a/	.	.	.	.	.	.	4f\	.	4a\	.	4c\	.	4f/	.	4a/	.	.	.
8c\J	.	8cc\	.	.	.	.	.	.	.	.	.	.	.	.	.	.	.	.	.	.	.	.	.	.
8C/L	.	8cc\	.	4e/	.	4g/	.	.	.	.	.	.	4c/	.	4g\	.	4C/	.	4e/	.	4g/	.	.	.
8C/J	.	8cc\J	.	.	.	.	.	.	.	.	.	.	.	.	.	.	.	.	.	.	.	.	.	.
*	*	*Xtremolo	*	*	*	*	*	*	*	*	*	*	*	*	*	*	*	*	*	*	*	*	*	*
!LO:LB:g=original	!	!	!	!	!	!	!	!	!	!	!	!	!	!	!	!	!	!	!	!	!	!	!	!
=111	=111	=111	=111	=111	=111	=111	=111	=111	=111	=111	=111	=111	=111	=111	=111	=111	=111	=111	=111	=111	=111	=111	=111	=111
!	!	!	!	!	!LO:DY:a	!	!	!	!	!	!	!	!	!	!	!	!	!LO:DY:t=p&colon;	!	!LO:DY:t=pp&colon;	!	!LO:DY:t=pp&colon;	!	!
4F\	.	4cc\	.	16A/LL	p	4f/	p	2.ryy	.	.	2.ryy	2.ryy	4A/	pp	4f\	.	4F\	p	4f/	pp	4f/	pp	2.ryy	2.ryy
.	.	.	.	16c/	.	.	.	.	.	.	.	.	.	.	.	.	.	.	.	.	.	.	.	.
.	.	.	.	16A/	.	.	.	.	.	.	.	.	.	.	.	.	.	.	.	.	.	.	.	.
.	.	.	.	16c/JJ	.	.	.	.	.	.	.	.	.	.	.	.	.	.	.	.	.	.	.	.
4r	.	4r	.	16A/LL	.	8r	.	.	.	.	.	.	4r	.	4r	.	4r	.	4r	.	4r	.	.	.
.	.	.	.	16c/	.	.	.	.	.	.	.	.	.	.	.	.	.	.	.	.	.	.	.	.
.	.	.	.	16A/	.	8a'/L	.	.	.	.	.	.	.	.	.	.	.	.	.	.	.	.	.	.
.	.	.	.	16c/JJ	.	.	.	.	.	.	.	.	.	.	.	.	.	.	.	.	.	.	.	.
4C/	.	4g\	.	(16B-/LL	.	8b-'/	.	.	.	.	.	.	4c/	.	4g\	.	4C/	.	4g/	.	4ee\	.	.	.
.	.	.	.	16c/)	.	.	.	.	.	.	.	.	.	.	.	.	.	.	.	.	.	.	.	.
.	.	.	.	(16B-/	.	8e'/J	.	.	.	.	.	.	.	.	.	.	.	.	.	.	.	.	.	.
.	.	.	.	16c/JJ)	.	.	.	.	.	.	.	.	.	.	.	.	.	.	.	.	.	.	.	.
=112	=112	=112	=112	=112	=112	=112	=112	=112	=112	=112	=112	=112	=112	=112	=112	=112	=112	=112	=112	=112	=112	=112	=112	=112
4F\	.	4a\	.	16A/LL	.	4f/	.	2.ryy	1.r	.	2.ryy	2.ryy	4f\	.	4a\	.	4F\	.	4a/	.	4ff\	.	2.ryy	2.ryy
.	.	.	.	16c/	.	.	.	.	.	.	.	.	.	.	.	.	.	.	.	.	.	.	.	.
.	.	.	.	16A/	.	.	.	.	.	.	.	.	.	.	.	.	.	.	.	.	.	.	.	.
.	.	.	.	16c/JJ	.	.	.	.	.	.	.	.	.	.	.	.	.	.	.	.	.	.	.	.
!	!	!	!	!	!	!	!LO:DY:t=p&colon;	!	!	!	!	!	!	!	!	!	!	!	!	!	!	!	!	!
4r	.	4r	.	16A/LL	.	8r	p	.	.	.	.	.	4r	.	4r	.	4r	.	4r	.	4r	.	.	.
.	.	.	.	16c/	.	.	.	.	.	.	.	.	.	.	.	.	.	.	.	.	.	.	.	.
.	.	.	.	16A/	.	8a'/L	.	.	.	.	.	.	.	.	.	.	.	.	.	.	.	.	.	.
.	.	.	.	16c/JJ	.	.	.	.	.	.	.	.	.	.	.	.	.	.	.	.	.	.	.	.
!	!	!	!	!	!	!	!LO:DY:t=p&colon;	!	!	!	!	!	!	!	!	!	!	!	!	!	!	!	!	!
4C/	.	4g\	.	16B-/LL	.	8b-'/	p	.	.	.	.	.	4c/	.	4g\	.	4C/	.	4g/	.	4ee\	.	.	.
.	.	.	.	16c/	.	.	.	.	.	.	.	.	.	.	.	.	.	.	.	.	.	.	.	.
.	.	.	.	16B-/	.	8e'/J	.	.	.	.	.	.	.	.	.	.	.	.	.	.	.	.	.	.
.	.	.	.	16c/JJ	.	.	.	.	.	.	.	.	.	.	.	.	.	.	.	.	.	.	.	.
!	!	!	!	!	!	!	!	!	!	!	!	!	!	!	!	!	!	!	!LO:LB:g=original	!	!	!	!	!
=113	=113	=113	=113	=113	=113	=113	=113	=113	=113	=113	=113	=113	=113	=113	=113	=113	=113	=113	=113	=113	=113	=113	=113	=113
2C/	.	2e\	.	2B-/	.	2g/	.	2.ryy	.	.	2.ryy	2.ryy	2c/	.	2g\	.	2C/	.	2g/	.	2ee\	.	2.ryy	2.ryy
4F\	.	4f\	.	4A/	.	4f/	.	.	.	.	.	.	4f\	.	4a\	.	4F\	.	4a/	.	4ff\	.	.	.
==	==	==	==	==	==	==	==	==	==	==	==	==	==	==	==	==	==	==	==	==	==	==	==	==
*-	*-	*-	*-	*-	*-	*-	*-	*-	*-	*-	*-	*-	*-	*-	*-	*-	*-	*-	*-	*-	*-	*-	*-	*-
!!!system-decoration: [(g1)][(g2)][(g3)][(g4)]<s15>
!!!RDF**kern: | = vertical stroke
!!!ENC: Berenika Jozajtis
!!!END: 2020-11-11
!!!AIN: 1 alto 1 basso 2 cor 1 fagot 2 flt 2 oboe 1 organ 1 soprn 1 tenor 1 viola 2 violn
!!!ENC: Andrzej Kubiczek
!!!END: 2022-04-25
